!!!COA:	Josquin des Prez
!!!CDT:	~1450-1521/08/27
!!!OTL:	Qui habitat in adjutorio altissimi
!!!AGN:	Motet
!!!SCT:	NJE 18.8
!!!SCA:	New Josquin Edition 18.8
!!!voices:	24
**kern	**kern	**kern	**kern	**kern	**kern	**kern	**kern	**kern	**kern	**kern	**kern	**kern	**kern	**kern	**kern	**kern	**kern	**kern	**kern	**kern	**kern	**kern	**kern
*staff24	*staff23	*staff22	*staff21	*staff20	*staff19	*staff18	*staff17	*staff16	*staff15	*staff14	*staff13	*staff12	*staff11	*staff10	*staff9	*staff8	*staff7	*staff6	*staff5	*staff4	*staff3	*staff2	*staff1
*Ivox	*Ivox	*Ivox	*Ivox	*Ivox	*Ivox	*Ivox	*Ivox	*Ivox	*Ivox	*Ivox	*Ivox	*Ivox	*Ivox	*Ivox	*Ivox	*Ivox	*Ivox	*Ivox	*Ivox	*Ivox	*Ivox	*Ivox	*Ivox
*I"Bassus6	*I"Bassus5	*I"Bassus4	*I"Bassus3	*I"Bassus2	*I"Bassus	*I"Tenor6	*I"Tenor5	*I"Tenor4	*I"Tenor3	*I"Tenor2	*I"Tenor	*I"Altus6	*I"Altus5	*I"Altus4	*I"Altus3	*I"Altus2	*I"Altus	*I"Superius6	*I"Superius5	*I"Superius4	*I"Superius3	*I"Superius2	*I"Superius
*I'B6	*I'B5	*I'B4	*I'B3	*I'B2	*I'B	*I'T6	*I'T5	*I'T4	*I'T3	*I'T2	*I'T	*I'A6	*I'A5	*I'A4	*I'A3	*I'A2	*I'A	*I'S6	*I'S5	*I'S4	*I'S3	*I'S2	*I'S
*clefF4	*clefF4	*clefF4	*clefF4	*clefF4	*clefF4	*clefGv2	*clefGv2	*clefGv2	*clefGv2	*clefGv2	*clefGv2	*clefGv2	*clefGv2	*clefGv2	*clefGv2	*clefGv2	*clefGv2	*clefG2	*clefG2	*clefG2	*clefG2	*clefG2	*clefG2
*k[]	*k[]	*k[]	*k[]	*k[]	*k[]	*k[]	*k[]	*k[]	*k[]	*k[]	*k[]	*k[]	*k[]	*k[]	*k[]	*k[]	*k[]	*k[]	*k[]	*k[]	*k[]	*k[]	*k[]
*M2/1	*M2/1	*M2/1	*M2/1	*M2/1	*M2/1	*M2/1	*M2/1	*M2/1	*M2/1	*M2/1	*M2/1	*M2/1	*M2/1	*M2/1	*M2/1	*M2/1	*M2/1	*M2/1	*M2/1	*M2/1	*M2/1	*M2/1	*M2/1
*met(C|)	*met(C|)	*met(C|)	*met(C|)	*met(C|)	*met(C|)	*met(C|)	*met(C|)	*met(C|)	*met(C|)	*met(C|)	*met(C|)	*met(C|)	*met(C|)	*met(C|)	*met(C|)	*met(C|)	*met(C|)	*met(C|)	*met(C|)	*met(C|)	*met(C|)	*met(C|)	*met(C|)
=1-	=1-	=1-	=1-	=1-	=1-	=1-	=1-	=1-	=1-	=1-	=1-	=1-	=1-	=1-	=1-	=1-	=1-	=1-	=1-	=1-	=1-	=1-	=1-
!!LO:TX:Z=20:t=Four 6-ex-1 canons at the unison
0r	0r	0r	0r	0r	0r	0r	0r	0r	0r	0r	0r	0r	0r	0r	0r	0r	0r	0r	0r	0r	0r	0r	0cc
=2	=2	=2	=2	=2	=2	=2	=2	=2	=2	=2	=2	=2	=2	=2	=2	=2	=2	=2	=2	=2	=2	=2	=2
0r	0r	0r	0r	0r	0r	0r	0r	0r	0r	0r	0r	0r	0r	0r	0r	0r	0r	0r	0r	0r	0r	0r	1cc
.	.	.	.	.	.	.	.	.	.	.	.	.	.	.	.	.	.	.	.	.	.	.	1cc
=3	=3	=3	=3	=3	=3	=3	=3	=3	=3	=3	=3	=3	=3	=3	=3	=3	=3	=3	=3	=3	=3	=3	=3
0r	0r	0r	0r	0r	0r	0r	0r	0r	0r	0r	0r	0r	0r	0r	0r	0r	0r	0r	0r	0r	0r	0cc	2.a/
.	.	.	.	.	.	.	.	.	.	.	.	.	.	.	.	.	.	.	.	.	.	.	4g/
.	.	.	.	.	.	.	.	.	.	.	.	.	.	.	.	.	.	.	.	.	.	.	4f/
.	.	.	.	.	.	.	.	.	.	.	.	.	.	.	.	.	.	.	.	.	.	.	4e/
.	.	.	.	.	.	.	.	.	.	.	.	.	.	.	.	.	.	.	.	.	.	.	[2f/
=4	=4	=4	=4	=4	=4	=4	=4	=4	=4	=4	=4	=4	=4	=4	=4	=4	=4	=4	=4	=4	=4	=4	=4
0r	0r	0r	0r	0r	0r	0r	0r	0r	0r	0r	0r	0r	0r	0r	0r	0r	0r	0r	0r	0r	0r	1cc	2f/]
.	.	.	.	.	.	.	.	.	.	.	.	.	.	.	.	.	.	.	.	.	.	.	4e/
.	.	.	.	.	.	.	.	.	.	.	.	.	.	.	.	.	.	.	.	.	.	.	4d/
.	.	.	.	.	.	.	.	.	.	.	.	.	.	.	.	.	.	.	.	.	.	1cc	1c
=5	=5	=5	=5	=5	=5	=5	=5	=5	=5	=5	=5	=5	=5	=5	=5	=5	=5	=5	=5	=5	=5	=5	=5
0r	0r	0r	0r	0r	0r	0r	0r	0r	0r	0r	0r	0r	0r	0r	0r	0r	0r	0r	0r	0r	0cc	2.a/	1f
.	.	.	.	.	.	.	.	.	.	.	.	.	.	.	.	.	.	.	.	.	.	4g/	.
.	.	.	.	.	.	.	.	.	.	.	.	.	.	.	.	.	.	.	.	.	.	4f/	[1f
.	.	.	.	.	.	.	.	.	.	.	.	.	.	.	.	.	.	.	.	.	.	4e/	.
.	.	.	.	.	.	.	.	.	.	.	.	.	.	.	.	.	.	.	.	.	.	[2f/	.
=6	=6	=6	=6	=6	=6	=6	=6	=6	=6	=6	=6	=6	=6	=6	=6	=6	=6	=6	=6	=6	=6	=6	=6
0r	0r	0r	0r	0r	0r	0r	0r	0r	0r	0r	0r	0r	0r	0r	0r	0r	0r	0r	0r	0r	1cc	2f/]	2f/]
.	.	.	.	.	.	.	.	.	.	.	.	.	.	.	.	.	.	.	.	.	.	4e/	2f/
.	.	.	.	.	.	.	.	.	.	.	.	.	.	.	.	.	.	.	.	.	.	4d/	.
.	.	.	.	.	.	.	.	.	.	.	.	.	.	.	.	.	.	.	.	.	1cc	1c	2g/
.	.	.	.	.	.	.	.	.	.	.	.	.	.	.	.	.	.	.	.	.	.	.	2g/
=7	=7	=7	=7	=7	=7	=7	=7	=7	=7	=7	=7	=7	=7	=7	=7	=7	=7	=7	=7	=7	=7	=7	=7
0r	0r	0r	0r	0r	0r	0r	0r	0r	0r	0r	0r	0r	0r	0r	0r	0r	0r	0r	0r	0cc	2.a/	1f	2.f/
.	.	.	.	.	.	.	.	.	.	.	.	.	.	.	.	.	.	.	.	.	4g/	.	4g/
.	.	.	.	.	.	.	.	.	.	.	.	.	.	.	.	.	.	.	.	.	4f/	[1f	4a/
.	.	.	.	.	.	.	.	.	.	.	.	.	.	.	.	.	.	.	.	.	4e/	.	4f/
.	.	.	.	.	.	.	.	.	.	.	.	.	.	.	.	.	.	.	.	.	[2f/	.	2cc\
=8	=8	=8	=8	=8	=8	=8	=8	=8	=8	=8	=8	=8	=8	=8	=8	=8	=8	=8	=8	=8	=8	=8	=8
0r	0r	0r	0r	0r	0r	0r	0r	0r	0r	0r	0r	0r	0r	0r	0r	0r	0r	0r	0r	1cc	2f/]	2f/]	2f/
.	.	.	.	.	.	.	.	.	.	.	.	.	.	.	.	.	.	.	.	.	4e/	2f/	1ff
.	.	.	.	.	.	.	.	.	.	.	.	.	.	.	.	.	.	.	.	.	4d/	.	.
.	.	.	.	.	.	.	.	.	.	.	.	.	.	.	.	.	.	.	.	1cc	1c	2g/	.
.	.	.	.	.	.	.	.	.	.	.	.	.	.	.	.	.	.	.	.	.	.	2g/	2ee\
=9	=9	=9	=9	=9	=9	=9	=9	=9	=9	=9	=9	=9	=9	=9	=9	=9	=9	=9	=9	=9	=9	=9	=9
0r	0r	0r	0r	0r	0r	0r	0r	0r	0r	0r	0r	0r	0r	0r	0r	0r	0r	0r	0cc	2.a/	1f	2.f/	1ff
.	.	.	.	.	.	.	.	.	.	.	.	.	.	.	.	.	.	.	.	4g/	.	4g/	.
.	.	.	.	.	.	.	.	.	.	.	.	.	.	.	.	.	.	.	.	4f/	[1f	4a/	2f/
.	.	.	.	.	.	.	.	.	.	.	.	.	.	.	.	.	.	.	.	4e/	.	4f/	.
.	.	.	.	.	.	.	.	.	.	.	.	.	.	.	.	.	.	.	.	[2f/	.	2cc\	[2a/
=10	=10	=10	=10	=10	=10	=10	=10	=10	=10	=10	=10	=10	=10	=10	=10	=10	=10	=10	=10	=10	=10	=10	=10
0r	0r	0r	0r	0r	0r	0r	0r	0r	0r	0r	0r	0r	0r	0r	0r	0r	0r	0r	1cc	2f/]	2f/]	2f/	2a/]
.	.	.	.	.	.	.	.	.	.	.	.	.	.	.	.	.	.	.	.	4e/	2f/	1ff	4g/
.	.	.	.	.	.	.	.	.	.	.	.	.	.	.	.	.	.	.	.	4d/	.	.	4f/
.	.	.	.	.	.	.	.	.	.	.	.	.	.	.	.	.	.	.	1cc	1c	2g/	.	2cc\
.	.	.	.	.	.	.	.	.	.	.	.	.	.	.	.	.	.	.	.	.	2g/	2ee\	2cc\
=11	=11	=11	=11	=11	=11	=11	=11	=11	=11	=11	=11	=11	=11	=11	=11	=11	=11	=11	=11	=11	=11	=11	=11
0r	0r	0r	0r	0r	0r	0r	0r	0r	0r	0r	0r	0r	0r	0r	0r	0r	0r	0cc	2.a/	1f	2.f/	1ff	0f
.	.	.	.	.	.	.	.	.	.	.	.	.	.	.	.	.	.	.	4g/	.	4g/	.	.
.	.	.	.	.	.	.	.	.	.	.	.	.	.	.	.	.	.	.	4f/	[1f	4a/	2f/	.
.	.	.	.	.	.	.	.	.	.	.	.	.	.	.	.	.	.	.	4e/	.	4f/	.	.
.	.	.	.	.	.	.	.	.	.	.	.	.	.	.	.	.	.	.	[2f/	.	2cc\	[2a/	.
=12	=12	=12	=12	=12	=12	=12	=12	=12	=12	=12	=12	=12	=12	=12	=12	=12	=12	=12	=12	=12	=12	=12	=12
0r	0r	0r	0r	0r	0r	0r	0r	0r	0r	0r	0r	0r	0r	0r	0r	0r	0r	1cc	2f/]	2f/]	2f/	2a/]	0r
.	.	.	.	.	.	.	.	.	.	.	.	.	.	.	.	.	.	.	4e/	2f/	1ff	4g/	.
.	.	.	.	.	.	.	.	.	.	.	.	.	.	.	.	.	.	.	4d/	.	.	4f/	.
.	.	.	.	.	.	.	.	.	.	.	.	.	.	.	.	.	.	1cc	1c	2g/	.	2cc\	.
.	.	.	.	.	.	.	.	.	.	.	.	.	.	.	.	.	.	.	.	2g/	2ee\	2cc\	.
=13	=13	=13	=13	=13	=13	=13	=13	=13	=13	=13	=13	=13	=13	=13	=13	=13	=13	=13	=13	=13	=13	=13	=13
0r	0r	0r	0r	0r	0r	0r	0r	0r	0r	0r	0r	0r	0r	0r	0r	0r	0r	2.a/	1f	2.f/	1ff	0f	2r
.	.	.	.	.	.	.	.	.	.	.	.	.	.	.	.	.	.	.	.	.	.	.	2cc\
.	.	.	.	.	.	.	.	.	.	.	.	.	.	.	.	.	.	4g/	.	4g/	.	.	.
.	.	.	.	.	.	.	.	.	.	.	.	.	.	.	.	.	.	4f/	[1f	4a/	2f/	.	2cc\
.	.	.	.	.	.	.	.	.	.	.	.	.	.	.	.	.	.	4e/	.	4f/	.	.	.
.	.	.	.	.	.	.	.	.	.	.	.	.	.	.	.	.	.	[2f/	.	2cc\	[2a/	.	2cc\
=14	=14	=14	=14	=14	=14	=14	=14	=14	=14	=14	=14	=14	=14	=14	=14	=14	=14	=14	=14	=14	=14	=14	=14
0r	0r	0r	0r	0r	0r	0r	0r	0r	0r	0r	0r	0r	0r	0r	0r	0r	0r	2f/]	2f/]	2f/	2a/]	0r	1dd
.	.	.	.	.	.	.	.	.	.	.	.	.	.	.	.	.	.	4e/	2f/	1ff	4g/	.	.
.	.	.	.	.	.	.	.	.	.	.	.	.	.	.	.	.	.	4d/	.	.	4f/	.	.
.	.	.	.	.	.	.	.	.	.	.	.	.	.	.	.	.	.	1c	2g/	.	2cc\	.	1ee
.	.	.	.	.	.	.	.	.	.	.	.	.	.	.	.	.	.	.	2g/	2ee\	2cc\	.	.
=15	=15	=15	=15	=15	=15	=15	=15	=15	=15	=15	=15	=15	=15	=15	=15	=15	=15	=15	=15	=15	=15	=15	=15
0r	0r	0r	0r	0r	0r	0r	0r	0r	0r	0r	0r	0r	0r	0r	0r	0r	2r	1f	2.f/	1ff	0f	2r	2cc\
.	.	.	.	.	.	.	.	.	.	.	.	.	.	.	.	.	1f	.	.	.	.	2cc\	1a
.	.	.	.	.	.	.	.	.	.	.	.	.	.	.	.	.	.	.	4g/	.	.	.	.
.	.	.	.	.	.	.	.	.	.	.	.	.	.	.	.	.	.	[1f	4a/	2f/	.	2cc\	.
.	.	.	.	.	.	.	.	.	.	.	.	.	.	.	.	.	.	.	4f/	.	.	.	.
.	.	.	.	.	.	.	.	.	.	.	.	.	.	.	.	.	2e\	.	2cc\	[2a/	.	2cc\	4g/
.	.	.	.	.	.	.	.	.	.	.	.	.	.	.	.	.	.	.	.	.	.	.	4f/
=16	=16	=16	=16	=16	=16	=16	=16	=16	=16	=16	=16	=16	=16	=16	=16	=16	=16	=16	=16	=16	=16	=16	=16
0r	0r	0r	0r	0r	0r	0r	0r	0r	0r	0r	0r	0r	0r	0r	0r	0r	2d\	2f/]	2f/	2a/]	0r	1dd	1f
.	.	.	.	.	.	.	.	.	.	.	.	.	.	.	.	.	2d\	2f/	1ff	4g/	.	.	.
.	.	.	.	.	.	.	.	.	.	.	.	.	.	.	.	.	.	.	.	4f/	.	.	.
.	.	.	.	.	.	.	.	.	.	.	.	.	.	.	.	.	2.c\	2g/	.	2cc\	.	1ee	2e/
.	.	.	.	.	.	.	.	.	.	.	.	.	.	.	.	.	.	2g/	2ee\	2cc\	.	.	2c/
.	.	.	.	.	.	.	.	.	.	.	.	.	.	.	.	.	4B\	.	.	.	.	.	.
=17	=17	=17	=17	=17	=17	=17	=17	=17	=17	=17	=17	=17	=17	=17	=17	=17	=17	=17	=17	=17	=17	=17	=17
0r	0r	0r	0r	0r	0r	0r	0r	0r	0r	0r	0r	0r	0r	0r	0r	2r	4A/	2.f/	1ff	0f	2r	2cc\	1cc
.	.	.	.	.	.	.	.	.	.	.	.	.	.	.	.	.	4G/	.	.	.	.	.	.
.	.	.	.	.	.	.	.	.	.	.	.	.	.	.	.	1f	1F	.	.	.	2cc\	1a	.
.	.	.	.	.	.	.	.	.	.	.	.	.	.	.	.	.	.	4g/	.	.	.	.	.
.	.	.	.	.	.	.	.	.	.	.	.	.	.	.	.	.	.	4a/	2f/	.	2cc\	.	2cc\
.	.	.	.	.	.	.	.	.	.	.	.	.	.	.	.	.	.	4f/	.	.	.	.	.
.	.	.	.	.	.	.	.	.	.	.	.	.	.	.	.	2e\	2f\	2cc\	[2a/	.	2cc\	4g/	[2cc\
.	.	.	.	.	.	.	.	.	.	.	.	.	.	.	.	.	.	.	.	.	.	4f/	.
=18	=18	=18	=18	=18	=18	=18	=18	=18	=18	=18	=18	=18	=18	=18	=18	=18	=18	=18	=18	=18	=18	=18	=18
0r	0r	0r	0r	0r	0r	0r	0r	0r	0r	0r	0r	0r	0r	0r	0r	2d\	2f\	2f/	2a/]	0r	1dd	1f	2cc\]
.	.	.	.	.	.	.	.	.	.	.	.	.	.	.	.	2d\	2f\	1ff	4g/	.	.	.	4b\
.	.	.	.	.	.	.	.	.	.	.	.	.	.	.	.	.	.	.	4f/	.	.	.	4a/
.	.	.	.	.	.	.	.	.	.	.	.	.	.	.	.	2.c\	1g	.	2cc\	.	1ee	2e/	4cc\
.	.	.	.	.	.	.	.	.	.	.	.	.	.	.	.	.	.	.	.	.	.	.	4dd\
.	.	.	.	.	.	.	.	.	.	.	.	.	.	.	.	.	.	2ee\	2cc\	.	.	2c/	[2ee\
.	.	.	.	.	.	.	.	.	.	.	.	.	.	.	.	4B\	.	.	.	.	.	.	.
=19	=19	=19	=19	=19	=19	=19	=19	=19	=19	=19	=19	=19	=19	=19	=19	=19	=19	=19	=19	=19	=19	=19	=19
0r	0r	0r	0r	0r	0r	0r	0r	0r	0r	0r	0r	0r	0r	0r	2r	4A/	1a	1ff	0f	2r	2cc\	1cc	2ee\]
.	.	.	.	.	.	.	.	.	.	.	.	.	.	.	.	4G/	.	.	.	.	.	.	.
.	.	.	.	.	.	.	.	.	.	.	.	.	.	.	1f	1F	.	.	.	2cc\	1a	.	4dd\
.	.	.	.	.	.	.	.	.	.	.	.	.	.	.	.	.	.	.	.	.	.	.	4cc\
.	.	.	.	.	.	.	.	.	.	.	.	.	.	.	.	.	2.a\	2f/	.	2cc\	.	2cc\	2cc\
.	.	.	.	.	.	.	.	.	.	.	.	.	.	.	2e\	2f\	.	[2a/	.	2cc\	4g/	[2cc\	[2a/
.	.	.	.	.	.	.	.	.	.	.	.	.	.	.	.	.	4g\	.	.	.	4f/	.	.
=20	=20	=20	=20	=20	=20	=20	=20	=20	=20	=20	=20	=20	=20	=20	=20	=20	=20	=20	=20	=20	=20	=20	=20
0r	0r	0r	0r	0r	0r	0r	0r	0r	0r	0r	0r	0r	0r	0r	2d\	2f\	4a\	2a/]	0r	1dd	1f	2cc\]	4a/]
.	.	.	.	.	.	.	.	.	.	.	.	.	.	.	.	.	4g\	.	.	.	.	.	8b\L
.	.	.	.	.	.	.	.	.	.	.	.	.	.	.	.	.	.	.	.	.	.	.	8cc\J
.	.	.	.	.	.	.	.	.	.	.	.	.	.	.	2d\	2f\	1f	4g/	.	.	.	4b\	2dd\
.	.	.	.	.	.	.	.	.	.	.	.	.	.	.	.	.	.	4f/	.	.	.	4a/	.
.	.	.	.	.	.	.	.	.	.	.	.	.	.	.	2.c\	1g	.	2cc\	.	1ee	2e/	4cc\	2g/
.	.	.	.	.	.	.	.	.	.	.	.	.	.	.	.	.	.	.	.	.	.	4dd\	.
.	.	.	.	.	.	.	.	.	.	.	.	.	.	.	.	.	2e\	2cc\	.	.	2c/	[2ee\	2c/
.	.	.	.	.	.	.	.	.	.	.	.	.	.	.	4B\	.	.	.	.	.	.	.	.
=21	=21	=21	=21	=21	=21	=21	=21	=21	=21	=21	=21	=21	=21	=21	=21	=21	=21	=21	=21	=21	=21	=21	=21
0r	0r	0r	0r	0r	0r	0r	0r	0r	0r	0r	0r	0r	0r	2r	4A/	1a	1f	0f	2r	2cc\	1cc	2ee\]	0r
.	.	.	.	.	.	.	.	.	.	.	.	.	.	.	4G/	.	.	.	.	.	.	.	.
.	.	.	.	.	.	.	.	.	.	.	.	.	.	1f	1F	.	.	.	2cc\	1a	.	4dd\	.
.	.	.	.	.	.	.	.	.	.	.	.	.	.	.	.	.	.	.	.	.	.	4cc\	.
.	.	.	.	.	.	.	.	.	.	.	.	.	.	.	.	2.a\	1F	.	2cc\	.	2cc\	2cc\	.
.	.	.	.	.	.	.	.	.	.	.	.	.	.	2e\	2f\	.	.	.	2cc\	4g/	[2cc\	[2a/	.
.	.	.	.	.	.	.	.	.	.	.	.	.	.	.	.	4g\	.	.	.	4f/	.	.	.
=22	=22	=22	=22	=22	=22	=22	=22	=22	=22	=22	=22	=22	=22	=22	=22	=22	=22	=22	=22	=22	=22	=22	=22
0r	0r	0r	0r	0r	0r	0r	0r	0r	0r	0r	0r	0r	0r	2d\	2f\	4a\	0r	0r	1dd	1f	2cc\]	4a/]	0r
.	.	.	.	.	.	.	.	.	.	.	.	.	.	.	.	4g\	.	.	.	.	.	8b\L	.
.	.	.	.	.	.	.	.	.	.	.	.	.	.	.	.	.	.	.	.	.	.	8cc\J	.
.	.	.	.	.	.	.	.	.	.	.	.	.	.	2d\	2f\	1f	.	.	.	.	4b\	2dd\	.
.	.	.	.	.	.	.	.	.	.	.	.	.	.	.	.	.	.	.	.	.	4a/	.	.
.	.	.	.	.	.	.	.	.	.	.	.	.	.	2.c\	1g	.	.	.	1ee	2e/	4cc\	2g/	.
.	.	.	.	.	.	.	.	.	.	.	.	.	.	.	.	.	.	.	.	.	4dd\	.	.
.	.	.	.	.	.	.	.	.	.	.	.	.	.	.	.	2e\	.	.	.	2c/	[2ee\	2c/	.
.	.	.	.	.	.	.	.	.	.	.	.	.	.	4B\	.	.	.	.	.	.	.	.	.
=23	=23	=23	=23	=23	=23	=23	=23	=23	=23	=23	=23	=23	=23	=23	=23	=23	=23	=23	=23	=23	=23	=23	=23
0r	0r	0r	0r	0r	0r	0r	0r	0r	0r	0r	0r	0r	2r	4A/	1a	1f	0r	2r	2cc\	1cc	2ee\]	0r	0r
.	.	.	.	.	.	.	.	.	.	.	.	.	.	4G/	.	.	.	.	.	.	.	.	.
.	.	.	.	.	.	.	.	.	.	.	.	.	1f	1F	.	.	.	2cc\	1a	.	4dd\	.	.
.	.	.	.	.	.	.	.	.	.	.	.	.	.	.	.	.	.	.	.	.	4cc\	.	.
.	.	.	.	.	.	.	.	.	.	.	.	.	.	.	2.a\	1F	.	2cc\	.	2cc\	2cc\	.	.
.	.	.	.	.	.	.	.	.	.	.	.	.	2e\	2f\	.	.	.	2cc\	4g/	[2cc\	[2a/	.	.
.	.	.	.	.	.	.	.	.	.	.	.	.	.	.	4g\	.	.	.	4f/	.	.	.	.
=24	=24	=24	=24	=24	=24	=24	=24	=24	=24	=24	=24	=24	=24	=24	=24	=24	=24	=24	=24	=24	=24	=24	=24
0r	0r	0r	0r	0r	0r	0r	0r	0r	0r	0r	0r	0r	2d\	2f\	4a\	0r	0r	1dd	1f	2cc\]	4a/]	0r	0r
.	.	.	.	.	.	.	.	.	.	.	.	.	.	.	4g\	.	.	.	.	.	8b\L	.	.
.	.	.	.	.	.	.	.	.	.	.	.	.	.	.	.	.	.	.	.	.	8cc\J	.	.
.	.	.	.	.	.	.	.	.	.	.	.	.	2d\	2f\	1f	.	.	.	.	4b\	2dd\	.	.
.	.	.	.	.	.	.	.	.	.	.	.	.	.	.	.	.	.	.	.	4a/	.	.	.
.	.	.	.	.	.	.	.	.	.	.	.	.	2.c\	1g	.	.	.	1ee	2e/	4cc\	2g/	.	.
.	.	.	.	.	.	.	.	.	.	.	.	.	.	.	.	.	.	.	.	4dd\	.	.	.
.	.	.	.	.	.	.	.	.	.	.	.	.	.	.	2e\	.	.	.	2c/	[2ee\	2c/	.	.
.	.	.	.	.	.	.	.	.	.	.	.	.	4B\	.	.	.	.	.	.	.	.	.	.
=25	=25	=25	=25	=25	=25	=25	=25	=25	=25	=25	=25	=25	=25	=25	=25	=25	=25	=25	=25	=25	=25	=25	=25
0r	0r	0r	0r	0r	0r	0r	0r	0r	0r	0r	0r	2r	4A/	1a	1f	0r	0r	2cc\	1cc	2ee\]	0r	0r	0r
.	.	.	.	.	.	.	.	.	.	.	.	.	4G/	.	.	.	.	.	.	.	.	.	.
.	.	.	.	.	.	.	.	.	.	.	.	1f	1F	.	.	.	.	1a	.	4dd\	.	.	.
.	.	.	.	.	.	.	.	.	.	.	.	.	.	.	.	.	.	.	.	4cc\	.	.	.
.	.	.	.	.	.	.	.	.	.	.	.	.	.	2.a\	1F	.	.	.	2cc\	2cc\	.	.	.
.	.	.	.	.	.	.	.	.	.	.	.	2e\	2f\	.	.	.	.	4g/	[2cc\	[2a/	.	.	.
.	.	.	.	.	.	.	.	.	.	.	.	.	.	4g\	.	.	.	4f/	.	.	.	.	.
=26	=26	=26	=26	=26	=26	=26	=26	=26	=26	=26	=26	=26	=26	=26	=26	=26	=26	=26	=26	=26	=26	=26	=26
0r	0r	0r	0r	0r	0r	0r	0r	0r	0r	0r	0r	2d\	2f\	4a\	0r	0r	1r	1f	2cc\]	4a/]	0r	0r	1r
.	.	.	.	.	.	.	.	.	.	.	.	.	.	4g\	.	.	.	.	.	8b\L	.	.	.
.	.	.	.	.	.	.	.	.	.	.	.	.	.	.	.	.	.	.	.	8cc\J	.	.	.
.	.	.	.	.	.	.	.	.	.	.	.	2d\	2f\	1f	.	.	.	.	4b\	2dd\	.	.	.
.	.	.	.	.	.	.	.	.	.	.	.	.	.	.	.	.	.	.	4a/	.	.	.	.
.	.	.	.	.	.	.	.	.	.	.	.	2.c\	1g	.	.	.	2r	2e/	4cc\	2g/	.	.	2r
.	.	.	.	.	.	.	.	.	.	.	.	.	.	.	.	.	.	.	4dd\	.	.	.	.
.	.	.	.	.	.	.	.	.	.	.	.	.	.	2e\	.	.	[2c\	2c/	[2ee\	2c/	.	.	[2cc\
.	.	.	.	.	.	.	.	.	.	.	.	4B\	.	.	.	.	.	.	.	.	.	.	.
=27	=27	=27	=27	=27	=27	=27	=27	=27	=27	=27	=27	=27	=27	=27	=27	=27	=27	=27	=27	=27	=27	=27	=27
0r	0r	0r	0r	0r	0r	0r	0r	0r	0r	0r	0r	4A/	1a	1f	0r	0r	2c\]	1cc	2ee\]	0r	0r	0r	2cc\]
.	.	.	.	.	.	.	.	.	.	.	.	4G/	.	.	.	.	.	.	.	.	.	.	.
.	.	.	.	.	.	.	.	.	.	.	.	1F	.	.	.	.	2c\	.	4dd\	.	.	.	2cc\
.	.	.	.	.	.	.	.	.	.	.	.	.	.	.	.	.	.	.	4cc\	.	.	.	.
.	.	.	.	.	.	.	.	.	.	.	.	.	2.a\	1F	.	.	1c	2cc\	2cc\	.	.	.	1ff
.	.	.	.	.	.	.	.	.	.	.	.	2f\	.	.	.	.	.	[2cc\	[2a/	.	.	.	.
.	.	.	.	.	.	.	.	.	.	.	.	.	4g\	.	.	.	.	.	.	.	.	.	.
=28	=28	=28	=28	=28	=28	=28	=28	=28	=28	=28	=28	=28	=28	=28	=28	=28	=28	=28	=28	=28	=28	=28	=28
0r	0r	0r	0r	0r	0r	0r	0r	0r	0r	0r	0r	2f\	4a\	0r	0r	1r	1d	2cc\]	4a/]	0r	0r	1r	1dd
.	.	.	.	.	.	.	.	.	.	.	.	.	4g\	.	.	.	.	.	8b\L	.	.	.	.
.	.	.	.	.	.	.	.	.	.	.	.	.	.	.	.	.	.	.	8cc\J	.	.	.	.
.	.	.	.	.	.	.	.	.	.	.	.	2f\	1f	.	.	.	.	4b\	2dd\	.	.	.	.
.	.	.	.	.	.	.	.	.	.	.	.	.	.	.	.	.	.	4a/	.	.	.	.	.
.	.	.	.	.	.	.	.	.	.	.	.	1g	.	.	.	2r	2.c\	4cc\	2g/	.	.	2r	2.ee\
.	.	.	.	.	.	.	.	.	.	.	.	.	.	.	.	.	.	4dd\	.	.	.	.	.
.	.	.	.	.	.	.	.	.	.	.	.	.	2e\	.	.	[2c\	.	[2ee\	2c/	.	.	[2cc\	.
.	.	.	.	.	.	.	.	.	.	.	.	.	.	.	.	.	4B\	.	.	.	.	.	4dd\
=29	=29	=29	=29	=29	=29	=29	=29	=29	=29	=29	=29	=29	=29	=29	=29	=29	=29	=29	=29	=29	=29	=29	=29
0r	0r	0r	0r	0r	0r	0r	0r	0r	0r	0r	0r	1a	1f	0r	0r	2c\]	4A/	2ee\]	0r	0r	0r	2cc\]	4cc\
.	.	.	.	.	.	.	.	.	.	.	.	.	.	.	.	.	4G/	.	.	.	.	.	4b\
.	.	.	.	.	.	.	.	.	.	.	.	.	.	.	.	2c\	1A	4dd\	.	.	.	2cc\	4a/
.	.	.	.	.	.	.	.	.	.	.	.	.	.	.	.	.	.	4cc\	.	.	.	.	4g/
.	.	.	.	.	.	.	.	.	.	.	.	2.a\	1F	.	.	1c	.	2cc\	.	.	.	1ff	2a/
.	.	.	.	.	.	.	.	.	.	.	.	.	.	.	.	.	4G/	[2a/	.	.	.	.	[2f/
.	.	.	.	.	.	.	.	.	.	.	.	4g\	.	.	.	.	4F/	.	.	.	.	.	.
=30	=30	=30	=30	=30	=30	=30	=30	=30	=30	=30	=30	=30	=30	=30	=30	=30	=30	=30	=30	=30	=30	=30	=30
0r	0r	0r	0r	0r	0r	0r	0r	0r	0r	0r	0r	4a\	0r	0r	1r	1d	1f	4a/]	0r	0r	1r	1dd	4f/]
.	.	.	.	.	.	.	.	.	.	.	.	4g\	.	.	.	.	.	8b\L	.	.	.	.	4g/
.	.	.	.	.	.	.	.	.	.	.	.	.	.	.	.	.	.	8cc\J	.	.	.	.	.
.	.	.	.	.	.	.	.	.	.	.	.	1f	.	.	.	.	.	2dd\	.	.	.	.	1a
.	.	.	.	.	.	.	.	.	.	.	.	.	.	.	2r	2.c\	2g\	2g/	.	.	2r	2.ee\	.
.	.	.	.	.	.	.	.	.	.	.	.	2e\	.	.	[2c\	.	2e\	2c/	.	.	[2cc\	.	4g/
.	.	.	.	.	.	.	.	.	.	.	.	.	.	.	.	4B\	.	.	.	.	.	4dd\	4f/
=31	=31	=31	=31	=31	=31	=31	=31	=31	=31	=31	=31	=31	=31	=31	=31	=31	=31	=31	=31	=31	=31	=31	=31
0r	0r	0r	0r	0r	0r	0r	0r	0r	0r	0r	0r	1f	0r	0r	2c\]	4A/	1a	0r	0r	0r	2cc\]	4cc\	2.cc\
.	.	.	.	.	.	.	.	.	.	.	.	.	.	.	.	4G/	.	.	.	.	.	4b\	.
.	.	.	.	.	.	.	.	.	.	.	.	.	.	.	2c\	1A	.	.	.	.	2cc\	4a/	.
.	.	.	.	.	.	.	.	.	.	.	.	.	.	.	.	.	.	.	.	.	.	4g/	4b\
.	.	.	.	.	.	.	.	.	.	.	.	1F	.	.	1c	.	1f	.	.	.	1ff	2a/	4a/
.	.	.	.	.	.	.	.	.	.	.	.	.	.	.	.	.	.	.	.	.	.	.	4g/
.	.	.	.	.	.	.	.	.	.	.	.	.	.	.	.	4G/	.	.	.	.	.	[2f/	[2cc\
.	.	.	.	.	.	.	.	.	.	.	.	.	.	.	.	4F/	.	.	.	.	.	.	.
=32	=32	=32	=32	=32	=32	=32	=32	=32	=32	=32	=32	=32	=32	=32	=32	=32	=32	=32	=32	=32	=32	=32	=32
0r	0r	0r	0r	0r	0r	0r	0r	0r	0r	0r	0r	0r	0r	1r	1d	1f	2f\	0r	0r	1r	1dd	4f/]	4cc\]
.	.	.	.	.	.	.	.	.	.	.	.	.	.	.	.	.	.	.	.	.	.	4g/	4f/
.	.	.	.	.	.	.	.	.	.	.	.	.	.	.	.	.	2F/	.	.	.	.	1a	1f
.	.	.	.	.	.	.	.	.	.	.	.	.	.	2r	2.c\	2g\	1c	.	.	2r	2.ee\	.	.
.	.	.	.	.	.	.	.	.	.	.	.	.	.	[2c\	.	2e\	.	.	.	[2cc\	.	4g/	2e/
.	.	.	.	.	.	.	.	.	.	.	.	.	.	.	4B\	.	.	.	.	.	4dd\	4f/	.
=33	=33	=33	=33	=33	=33	=33	=33	=33	=33	=33	=33	=33	=33	=33	=33	=33	=33	=33	=33	=33	=33	=33	=33
0r	0r	0r	0r	0r	0r	0r	0r	0r	0r	0r	0r	0r	0r	2c\]	4A/	1a	0F	0r	0r	2cc\]	4cc\	2.cc\	1.f
.	.	.	.	.	.	.	.	.	.	.	.	.	.	.	4G/	.	.	.	.	.	4b\	.	.
.	.	.	.	.	.	.	.	.	.	.	.	.	.	2c\	1A	.	.	.	.	2cc\	4a/	.	.
.	.	.	.	.	.	.	.	.	.	.	.	.	.	.	.	.	.	.	.	.	4g/	4b\	.
.	.	.	.	.	.	.	.	.	.	.	.	.	.	1c	.	1f	.	.	.	1ff	2a/	4a/	.
.	.	.	.	.	.	.	.	.	.	.	.	.	.	.	.	.	.	.	.	.	.	4g/	.
.	.	.	.	.	.	.	.	.	.	.	.	.	.	.	4G/	.	.	.	.	.	[2f/	[2cc\	4e/
.	.	.	.	.	.	.	.	.	.	.	.	.	.	.	4F/	.	.	.	.	.	.	.	4d/
=34	=34	=34	=34	=34	=34	=34	=34	=34	=34	=34	=34	=34	=34	=34	=34	=34	=34	=34	=34	=34	=34	=34	=34
0r	0r	0r	0r	0r	0r	0r	0r	0r	0r	0r	0r	0r	1r	1d	1f	2f\	0r	0r	1r	1dd	4f/]	4cc\]	1a
.	.	.	.	.	.	.	.	.	.	.	.	.	.	.	.	.	.	.	.	.	4g/	4f/	.
.	.	.	.	.	.	.	.	.	.	.	.	.	.	.	.	2F/	.	.	.	.	1a	1f	.
.	.	.	.	.	.	.	.	.	.	.	.	.	2r	2.c\	2g\	1c	.	.	2r	2.ee\	.	.	1r
.	.	.	.	.	.	.	.	.	.	.	.	.	[2c\	.	2e\	.	.	.	[2cc\	.	4g/	2e/	.
.	.	.	.	.	.	.	.	.	.	.	.	.	.	4B\	.	.	.	.	.	4dd\	4f/	.	.
=35	=35	=35	=35	=35	=35	=35	=35	=35	=35	=35	=35	=35	=35	=35	=35	=35	=35	=35	=35	=35	=35	=35	=35
0r	0r	0r	0r	0r	0r	0r	0r	0r	0r	0r	0r	0r	2c\]	4A/	1a	0F	0r	0r	2cc\]	4cc\	2.cc\	1.f	0r
.	.	.	.	.	.	.	.	.	.	.	.	.	.	4G/	.	.	.	.	.	4b\	.	.	.
.	.	.	.	.	.	.	.	.	.	.	.	.	2c\	1A	.	.	.	.	2cc\	4a/	.	.	.
.	.	.	.	.	.	.	.	.	.	.	.	.	.	.	.	.	.	.	.	4g/	4b\	.	.
.	.	.	.	.	.	.	.	.	.	.	.	.	1c	.	1f	.	.	.	1ff	2a/	4a/	.	.
.	.	.	.	.	.	.	.	.	.	.	.	.	.	.	.	.	.	.	.	.	4g/	.	.
.	.	.	.	.	.	.	.	.	.	.	.	.	.	4G/	.	.	.	.	.	[2f/	[2cc\	4e/	.
.	.	.	.	.	.	.	.	.	.	.	.	.	.	4F/	.	.	.	.	.	.	.	4d/	.
=36	=36	=36	=36	=36	=36	=36	=36	=36	=36	=36	=36	=36	=36	=36	=36	=36	=36	=36	=36	=36	=36	=36	=36
0r	0r	0r	0r	0r	0r	0r	0r	0r	0r	0r	0r	1r	1d	1f	2f\	0r	0r	1r	1dd	4f/]	4cc\]	1a	0r
.	.	.	.	.	.	.	.	.	.	.	.	.	.	.	.	.	.	.	.	4g/	4f/	.	.
.	.	.	.	.	.	.	.	.	.	.	.	.	.	.	2F/	.	.	.	.	1a	1f	.	.
.	.	.	.	.	.	.	.	.	.	.	.	2r	2.c\	2g\	1c	.	.	2r	2.ee\	.	.	1r	.
.	.	.	.	.	.	.	.	.	.	.	.	[2c\	.	2e\	.	.	.	[2cc\	.	4g/	2e/	.	.
.	.	.	.	.	.	.	.	.	.	.	.	.	4B\	.	.	.	.	.	4dd\	4f/	.	.	.
=37	=37	=37	=37	=37	=37	=37	=37	=37	=37	=37	=37	=37	=37	=37	=37	=37	=37	=37	=37	=37	=37	=37	=37
0r	0r	0r	0r	0r	0r	0r	0r	0r	0r	0r	0r	2c\]	4A/	1a	0F	0r	0r	2cc\]	4cc\	2.cc\	1.f	0r	0r
.	.	.	.	.	.	.	.	.	.	.	.	.	4G/	.	.	.	.	.	4b\	.	.	.	.
.	.	.	.	.	.	.	.	.	.	.	.	2c\	1A	.	.	.	.	2cc\	4a/	.	.	.	.
.	.	.	.	.	.	.	.	.	.	.	.	.	.	.	.	.	.	.	4g/	4b\	.	.	.
.	.	.	.	.	.	.	.	.	.	.	.	1c	.	1f	.	.	.	1ff	2a/	4a/	.	.	.
.	.	.	.	.	.	.	.	.	.	.	.	.	.	.	.	.	.	.	.	4g/	.	.	.
.	.	.	.	.	.	.	.	.	.	.	.	.	4G/	.	.	.	.	.	[2f/	[2cc\	4e/	.	.
.	.	.	.	.	.	.	.	.	.	.	.	.	4F/	.	.	.	.	.	.	.	4d/	.	.
=38	=38	=38	=38	=38	=38	=38	=38	=38	=38	=38	=38	=38	=38	=38	=38	=38	=38	=38	=38	=38	=38	=38	=38
0r	0r	0r	0r	0r	0r	0r	0r	0r	0r	0r	0r	1d	1f	2f\	0r	0r	1r	1dd	4f/]	4cc\]	1a	0r	0r
.	.	.	.	.	.	.	.	.	.	.	.	.	.	.	.	.	.	.	4g/	4f/	.	.	.
.	.	.	.	.	.	.	.	.	.	.	.	.	.	2F/	.	.	.	.	1a	1f	.	.	.
.	.	.	.	.	.	.	.	.	.	.	.	2.c\	2g\	1c	.	.	2r	2.ee\	.	.	1r	.	.
.	.	.	.	.	.	.	.	.	.	.	.	.	2e\	.	.	.	[2A/	.	4g/	2e/	.	.	.
.	.	.	.	.	.	.	.	.	.	.	.	4B\	.	.	.	.	.	4dd\	4f/	.	.	.	.
=39	=39	=39	=39	=39	=39	=39	=39	=39	=39	=39	=39	=39	=39	=39	=39	=39	=39	=39	=39	=39	=39	=39	=39
0r	0r	0r	0r	0r	0r	0r	0r	0r	0r	0r	0r	4A/	1a	0F	0r	0r	2A/]	4cc\	2.cc\	1.f	0r	0r	0r
.	.	.	.	.	.	.	.	.	.	.	.	4G/	.	.	.	.	.	4b\	.	.	.	.	.
.	.	.	.	.	.	.	.	.	.	.	.	1A	.	.	.	.	1c	4a/	.	.	.	.	.
.	.	.	.	.	.	.	.	.	.	.	.	.	.	.	.	.	.	4g/	4b\	.	.	.	.
.	.	.	.	.	.	.	.	.	.	.	.	.	1f	.	.	.	.	2a/	4a/	.	.	.	.
.	.	.	.	.	.	.	.	.	.	.	.	.	.	.	.	.	.	.	4g/	.	.	.	.
.	.	.	.	.	.	.	.	.	.	.	.	4G/	.	.	.	.	[2A/	[2f/	[2cc\	4e/	.	.	.
.	.	.	.	.	.	.	.	.	.	.	.	4F/	.	.	.	.	.	.	.	4d/	.	.	.
=40	=40	=40	=40	=40	=40	=40	=40	=40	=40	=40	=40	=40	=40	=40	=40	=40	=40	=40	=40	=40	=40	=40	=40
0r	0r	0r	0r	0r	0r	0r	0r	0r	0r	0r	0r	1f	2f\	0r	0r	1r	2A/]	4f/]	4cc\]	1a	0r	0r	0r
.	.	.	.	.	.	.	.	.	.	.	.	.	.	.	.	.	.	4g/	4f/	.	.	.	.
.	.	.	.	.	.	.	.	.	.	.	.	.	2F/	.	.	.	2F/	1a	1f	.	.	.	.
.	.	.	.	.	.	.	.	.	.	.	.	2g\	1c	.	.	2r	1r	.	.	1r	.	.	.
.	.	.	.	.	.	.	.	.	.	.	.	2e\	.	.	.	[2A/	.	4g/	2e/	.	.	.	.
.	.	.	.	.	.	.	.	.	.	.	.	.	.	.	.	.	.	4f/	.	.	.	.	.
=41	=41	=41	=41	=41	=41	=41	=41	=41	=41	=41	=41	=41	=41	=41	=41	=41	=41	=41	=41	=41	=41	=41	=41
0r	0r	0r	0r	0r	0r	0r	0r	0r	0r	0r	1.c	1a	0F	0r	0r	2A/]	0r	2.cc\	1.f	0r	0r	0r	0r
.	.	.	.	.	.	.	.	.	.	.	.	.	.	.	.	1c	.	.	.	.	.	.	.
.	.	.	.	.	.	.	.	.	.	.	.	.	.	.	.	.	.	4b\	.	.	.	.	.
.	.	.	.	.	.	.	.	.	.	.	.	1f	.	.	.	.	.	4a/	.	.	.	.	.
.	.	.	.	.	.	.	.	.	.	.	.	.	.	.	.	.	.	4g/	.	.	.	.	.
.	.	.	.	.	.	.	.	.	.	.	2c\	.	.	.	.	[2A/	.	[2cc\	4e/	.	.	.	.
.	.	.	.	.	.	.	.	.	.	.	.	.	.	.	.	.	.	.	4d/	.	.	.	.
=42	=42	=42	=42	=42	=42	=42	=42	=42	=42	=42	=42	=42	=42	=42	=42	=42	=42	=42	=42	=42	=42	=42	=42
0r	0r	0r	0r	0r	0r	0r	0r	0r	0r	0r	1A	2f\	0r	0r	1r	2A/]	0r	4cc\]	1a	0r	0r	0r	0r
.	.	.	.	.	.	.	.	.	.	.	.	.	.	.	.	.	.	4f/	.	.	.	.	.
.	.	.	.	.	.	.	.	.	.	.	.	2F/	.	.	.	2F/	.	1f	.	.	.	.	.
.	.	.	.	.	.	.	.	.	.	.	2.c\	1c	.	.	2r	1r	.	.	1r	.	.	.	.
.	.	.	.	.	.	.	.	.	.	.	.	.	.	.	[2A/	.	.	2e/	.	.	.	.	.
.	.	.	.	.	.	.	.	.	.	.	4B\	.	.	.	.	.	.	.	.	.	.	.	.
=43	=43	=43	=43	=43	=43	=43	=43	=43	=43	=43	=43	=43	=43	=43	=43	=43	=43	=43	=43	=43	=43	=43	=43
0r	0r	0r	0r	0r	0r	0r	0r	0r	0r	1.c	4A/	0F	0r	0r	2A/]	0r	1r	1.f	0r	0r	0r	0r	0r
.	.	.	.	.	.	.	.	.	.	.	4G/	.	.	.	.	.	.	.	.	.	.	.	.
.	.	.	.	.	.	.	.	.	.	.	2.F/	.	.	.	1c	.	.	.	.	.	.	.	.
.	.	.	.	.	.	.	.	.	.	.	.	.	.	.	.	.	2r	.	.	.	.	.	.
.	.	.	.	.	.	.	.	.	.	.	4E/	.	.	.	.	.	.	.	.	.	.	.	.
.	.	.	.	.	.	.	.	.	.	2c\	2C/	.	.	.	[2A/	.	2c\	4e/	.	.	.	.	.
.	.	.	.	.	.	.	.	.	.	.	.	.	.	.	.	.	.	4d/	.	.	.	.	.
=44	=44	=44	=44	=44	=44	=44	=44	=44	=44	=44	=44	=44	=44	=44	=44	=44	=44	=44	=44	=44	=44	=44	=44
0r	0r	0r	0r	0r	0r	0r	0r	0r	0r	1A	1D	0r	0r	1r	2A/]	0r	2c\	1a	0r	0r	0r	0r	0r
.	.	.	.	.	.	.	.	.	.	.	.	.	.	.	2F/	.	4B\	.	.	.	.	.	.
.	.	.	.	.	.	.	.	.	.	.	.	.	.	.	.	.	4A/	.	.	.	.	.	.
.	.	.	.	.	.	.	.	.	.	2.c\	1C	.	.	2r	1r	.	2e\	1r	.	.	.	.	.
.	.	.	.	.	.	.	.	.	.	.	.	.	.	[2A/	.	.	[2c\	.	.	.	.	.	.
.	.	.	.	.	.	.	.	.	.	4B\	.	.	.	.	.	.	.	.	.	.	.	.	.
=45	=45	=45	=45	=45	=45	=45	=45	=45	=45	=45	=45	=45	=45	=45	=45	=45	=45	=45	=45	=45	=45	=45	=45
!	!	!	!	!	!	!	!	!	!LO:TX:Y=124:t=- 7 -	!	!	!	!	!	!	!	!	!	!	!	!	!	!
0r	0r	0r	0r	0r	0r	0r	0r	0r	1.c	4A/	0r	0r	0r	2A/]	0r	1r	2c\]	0r	0r	0r	0r	0r	0r
.	.	.	.	.	.	.	.	.	.	4G/	.	.	.	.	.	.	.	.	.	.	.	.	.
.	.	.	.	.	.	.	.	.	.	2.F/	.	.	.	1c	.	.	1f	.	.	.	.	.	.
.	.	.	.	.	.	.	.	.	.	.	.	.	.	.	.	2r	.	.	.	.	.	.	.
.	.	.	.	.	.	.	.	.	.	4E/	.	.	.	.	.	.	.	.	.	.	.	.	.
.	.	.	.	.	.	.	.	.	2c\	2C/	.	.	.	[2A/	.	2c\	2e\	.	.	.	.	.	.
=46	=46	=46	=46	=46	=46	=46	=46	=46	=46	=46	=46	=46	=46	=46	=46	=46	=46	=46	=46	=46	=46	=46	=46
0r	0r	0r	0r	0r	0r	0r	0r	0r	1A	1D	2r	0r	1r	2A/]	0r	2c\	1f	0r	0r	0r	0r	0r	0r
.	.	.	.	.	.	.	.	.	.	.	2F/	.	.	2F/	.	4B\	.	.	.	.	.	.	.
.	.	.	.	.	.	.	.	.	.	.	.	.	.	.	.	4A/	.	.	.	.	.	.	.
.	.	.	.	.	.	.	.	.	2.c\	1C	2G/	.	2r	1r	.	2e\	1r	.	.	.	.	.	.
.	.	.	.	.	.	.	.	.	.	.	[2A/	.	[2A/	.	.	[2c\	.	.	.	.	.	.	.
.	.	.	.	.	.	.	.	.	4B\	.	.	.	.	.	.	.	.	.	.	.	.	.	.
=47	=47	=47	=47	=47	=47	=47	=47	=47	=47	=47	=47	=47	=47	=47	=47	=47	=47	=47	=47	=47	=47	=47	=47
0r	0r	0r	0r	0r	0r	0r	0r	1.c	4A/	0r	4A/]	0r	2A/]	0r	1r	2c\]	0r	0r	0r	0r	0r	0r	0r
.	.	.	.	.	.	.	.	.	4G/	.	4B\	.	.	.	.	.	.	.	.	.	.	.	.
.	.	.	.	.	.	.	.	.	2.F/	.	2.c\	.	1c	.	.	1f	.	.	.	.	.	.	.
.	.	.	.	.	.	.	.	.	.	.	.	.	.	.	2r	.	.	.	.	.	.	.	.
.	.	.	.	.	.	.	.	.	4E/	.	4A/	.	.	.	.	.	.	.	.	.	.	.	.
.	.	.	.	.	.	.	.	2c\	2C/	.	[2e\	.	[2A/	.	2c\	2e\	.	.	.	.	.	.	.
=48	=48	=48	=48	=48	=48	=48	=48	=48	=48	=48	=48	=48	=48	=48	=48	=48	=48	=48	=48	=48	=48	=48	=48
0r	0r	0r	0r	0r	0r	0r	0r	1A	1D	2r	4e\]	1r	2A/]	0r	2c\	1f	0r	0r	0r	0r	0r	0r	0r
.	.	.	.	.	.	.	.	.	.	.	8d\L	.	.	.	.	.	.	.	.	.	.	.	.
.	.	.	.	.	.	.	.	.	.	.	8c\J	.	.	.	.	.	.	.	.	.	.	.	.
.	.	.	.	.	.	.	.	.	.	2F/	2d\	.	2F/	.	4B\	.	.	.	.	.	.	.	.
.	.	.	.	.	.	.	.	.	.	.	.	.	.	.	4A/	.	.	.	.	.	.	.	.
.	.	.	.	.	.	.	.	2.c\	1C	2G/	2.e\	2r	1r	.	2e\	1r	.	.	.	.	.	.	.
.	.	.	.	.	.	.	.	.	.	[2A/	.	[2A/	.	.	[2c\	.	.	.	.	.	.	.	.
.	.	.	.	.	.	.	.	4B\	.	.	4d\	.	.	.	.	.	.	.	.	.	.	.	.
=49	=49	=49	=49	=49	=49	=49	=49	=49	=49	=49	=49	=49	=49	=49	=49	=49	=49	=49	=49	=49	=49	=49	=49
0r	0r	0r	0r	0r	0r	0r	1.c	4A/	0r	4A/]	4c\	2A/]	0r	1r	2c\]	0r	0r	0r	0r	0r	0r	0r	0r
.	.	.	.	.	.	.	.	4G/	.	4B\	4B\	.	.	.	.	.	.	.	.	.	.	.	.
.	.	.	.	.	.	.	.	2.F/	.	2.c\	2.A/	1c	.	.	1f	.	.	.	.	.	.	.	.
.	.	.	.	.	.	.	.	.	.	.	.	.	.	2r	.	.	.	.	.	.	.	.	.
.	.	.	.	.	.	.	.	4E/	.	4A/	4G/	.	.	.	.	.	.	.	.	.	.	.	.
.	.	.	.	.	.	.	2c\	2C/	.	[2e\	4E/	[2A/	.	2c\	2e\	.	.	.	.	.	.	.	.
.	.	.	.	.	.	.	.	.	.	.	4G/	.	.	.	.	.	.	.	.	.	.	.	.
=50	=50	=50	=50	=50	=50	=50	=50	=50	=50	=50	=50	=50	=50	=50	=50	=50	=50	=50	=50	=50	=50	=50	=50
0r	0r	0r	0r	0r	0r	0r	1A	1D	2r	4e\]	1F	2A/]	0r	2c\	1f	0r	0r	0r	0r	0r	0r	0r	0r
.	.	.	.	.	.	.	.	.	.	8d\L	.	.	.	.	.	.	.	.	.	.	.	.	.
.	.	.	.	.	.	.	.	.	.	8c\J	.	.	.	.	.	.	.	.	.	.	.	.	.
.	.	.	.	.	.	.	.	.	2F/	2d\	.	2F/	.	4B\	.	.	.	.	.	.	.	.	.
.	.	.	.	.	.	.	.	.	.	.	.	.	.	4A/	.	.	.	.	.	.	.	.	.
.	.	.	.	.	.	.	2.c\	1C	2G/	2.e\	2r	1r	.	2e\	1r	.	.	.	.	.	.	.	.
.	.	.	.	.	.	.	.	.	[2A/	.	2E/	.	.	[2c\	.	.	.	.	.	.	.	.	.
.	.	.	.	.	.	.	4B\	.	.	4d\	.	.	.	.	.	.	.	.	.	.	.	.	.
=51	=51	=51	=51	=51	=51	=51	=51	=51	=51	=51	=51	=51	=51	=51	=51	=51	=51	=51	=51	=51	=51	=51	=51
!	!	!	!	!	!	!	!	!	!LO:TX:Y=65:t=- 8 -	!	!	!	!	!	!	!	!	!	!	!	!	!	!
0r	0r	0r	0r	0r	0r	1.c	4A/	0r	4A/]	4c\	2F/	0r	1r	2c\]	0r	0r	0r	0r	0r	0r	0r	0r	0r
.	.	.	.	.	.	.	4G/	.	4B\	4B\	.	.	.	.	.	.	.	.	.	.	.	.	.
.	.	.	.	.	.	.	2.F/	.	2.c\	2.A/	2F/	.	.	1f	.	.	.	.	.	.	.	.	.
.	.	.	.	.	.	.	.	.	.	.	1C	.	2r	.	.	.	.	.	.	.	.	.	.
.	.	.	.	.	.	.	4E/	.	4A/	4G/	.	.	.	.	.	.	.	.	.	.	.	.	.
.	.	.	.	.	.	2c\	2C/	.	[2e\	4E/	.	.	2c\	2e\	.	.	.	.	.	.	.	.	.
.	.	.	.	.	.	.	.	.	.	4G/	.	.	.	.	.	.	.	.	.	.	.	.	.
=52	=52	=52	=52	=52	=52	=52	=52	=52	=52	=52	=52	=52	=52	=52	=52	=52	=52	=52	=52	=52	=52	=52	=52
0r	0r	0r	0r	0r	0r	1A	1D	2r	4e\]	1F	0r	0r	2c\	1f	0r	0r	0r	0r	0r	0r	0r	0r	0r
.	.	.	.	.	.	.	.	.	8d\L	.	.	.	.	.	.	.	.	.	.	.	.	.	.
.	.	.	.	.	.	.	.	.	8c\J	.	.	.	.	.	.	.	.	.	.	.	.	.	.
.	.	.	.	.	.	.	.	2F/	2d\	.	.	.	4B\	.	.	.	.	.	.	.	.	.	.
.	.	.	.	.	.	.	.	.	.	.	.	.	4A/	.	.	.	.	.	.	.	.	.	.
.	.	.	.	.	.	2.c\	1C	2G/	2.e\	2r	.	.	2e\	1r	.	.	.	.	.	.	.	.	.
.	.	.	.	.	.	.	.	[2A/	.	2E/	.	.	[2c\	.	.	.	.	.	.	.	.	.	.
.	.	.	.	.	.	4B\	.	.	4d\	.	.	.	.	.	.	.	.	.	.	.	.	.	.
=53	=53	=53	=53	=53	=53	=53	=53	=53	=53	=53	=53	=53	=53	=53	=53	=53	=53	=53	=53	=53	=53	=53	=53
!	!	!	!	!	!	!	!	!	!LO:TX:Y=65:t=- 9 -	!	!	!	!	!	!	!	!	!	!	!	!	!	!
0r	0r	0r	0r	0r	0r	4A/	0r	4A/]	4c\	2F/	0r	1r	2c\]	0r	0r	0r	0r	0r	0r	0r	0r	0r	0r
.	.	.	.	.	.	4G/	.	4B\	4B\	.	.	.	.	.	.	.	.	.	.	.	.	.	.
.	.	.	.	.	.	2.F/	.	2.c\	2.A/	2F/	.	.	1f	.	.	.	.	.	.	.	.	.	.
.	.	.	.	.	.	.	.	.	.	1C	.	2r	.	.	.	.	.	.	.	.	.	.	.
.	.	.	.	.	.	4E/	.	4A/	4G/	.	.	.	.	.	.	.	.	.	.	.	.	.	.
.	.	.	.	.	.	2C/	.	[2e\	4E/	.	.	2c\	2e\	.	.	.	.	.	.	.	.	.	.
.	.	.	.	.	.	.	.	.	4G/	.	.	.	.	.	.	.	.	.	.	.	.	.	.
=54	=54	=54	=54	=54	=54	=54	=54	=54	=54	=54	=54	=54	=54	=54	=54	=54	=54	=54	=54	=54	=54	=54	=54
0r	0r	0r	0r	0r	0r	1D	2r	4e\]	1F	0r	1r	2c\	1f	0r	0r	0r	0r	0r	0r	0r	0r	0r	0r
.	.	.	.	.	.	.	.	8d\L	.	.	.	.	.	.	.	.	.	.	.	.	.	.	.
.	.	.	.	.	.	.	.	8c\J	.	.	.	.	.	.	.	.	.	.	.	.	.	.	.
.	.	.	.	.	.	.	2F/	2d\	.	.	.	4B\	.	.	.	.	.	.	.	.	.	.	.
.	.	.	.	.	.	.	.	.	.	.	.	4A/	.	.	.	.	.	.	.	.	.	.	.
.	.	.	.	.	.	1C	2G/	2.e\	2r	.	2.c\	2e\	1r	.	.	.	.	.	.	.	.	.	.
.	.	.	.	.	.	.	[2A/	.	2E/	.	.	[2c\	.	.	.	.	.	.	.	.	.	.	.
.	.	.	.	.	.	.	.	4d\	.	.	4B\	.	.	.	.	.	.	.	.	.	.	.	.
=55	=55	=55	=55	=55	=55	=55	=55	=55	=55	=55	=55	=55	=55	=55	=55	=55	=55	=55	=55	=55	=55	=55	=55
0r	0r	0r	0r	0r	2r	0r	4A/]	4c\	2F/	0r	4c\	2c\]	0r	0r	0r	0r	0r	0r	0r	0r	0r	0r	0r
.	.	.	.	.	.	.	4B\	4B\	.	.	4d\	.	.	.	.	.	.	.	.	.	.	.	.
.	.	.	.	.	2F\	.	2.c\	2.A/	2F/	.	1c	1f	.	.	.	.	.	.	.	.	.	.	.
.	.	.	.	.	2G\	.	.	.	1C	.	.	.	.	.	.	.	.	.	.	.	.	.	.
.	.	.	.	.	.	.	4A/	4G/	.	.	.	.	.	.	.	.	.	.	.	.	.	.	.
.	.	.	.	.	[2A\	.	[2e\	4E/	.	.	2C/	2e\	.	.	.	.	.	.	.	.	.	.	.
.	.	.	.	.	.	.	.	4G/	.	.	.	.	.	.	.	.	.	.	.	.	.	.	.
=56	=56	=56	=56	=56	=56	=56	=56	=56	=56	=56	=56	=56	=56	=56	=56	=56	=56	=56	=56	=56	=56	=56	=56
0r	0r	0r	0r	0r	2A\]	2r	4e\]	1F	0r	1r	2D/	1f	0r	0r	0r	0r	0r	0r	0r	0r	0r	0r	0r
.	.	.	.	.	.	.	8d\L	.	.	.	.	.	.	.	.	.	.	.	.	.	.	.	.
.	.	.	.	.	.	.	8c\J	.	.	.	.	.	.	.	.	.	.	.	.	.	.	.	.
.	.	.	.	.	4G\	2F/	2d\	.	.	.	2D/	.	.	.	.	.	.	.	.	.	.	.	.
.	.	.	.	.	4F\	.	.	.	.	.	.	.	.	.	.	.	.	.	.	.	.	.	.
.	.	.	.	.	2E\	2G/	2.e\	2r	.	2.c\	1C	1r	.	.	.	.	.	.	.	.	.	.	.
.	.	.	.	.	2AA/	[2A/	.	2E/	.	.	.	.	.	.	.	.	.	.	.	.	.	.	.
.	.	.	.	.	.	.	4d\	.	.	4B\	.	.	.	.	.	.	.	.	.	.	.	.	.
=57	=57	=57	=57	=57	=57	=57	=57	=57	=57	=57	=57	=57	=57	=57	=57	=57	=57	=57	=57	=57	=57	=57	=57
!	!	!	!	!	!	!	!	!LO:TX:Y=-154:t=- 10 -	!	!	!	!	!	!	!	!	!	!	!	!	!	!	!
0r	0r	0r	0r	2r	0r	4A/]	4c\	2F/	0r	4c\	2r	0r	0r	0r	0r	0r	0r	0r	0r	0r	0r	0r	0r
.	.	.	.	.	.	4B\	4B\	.	.	4d\	.	.	.	.	.	.	.	.	.	.	.	.	.
.	.	.	.	2F\	.	2.c\	2.A/	2F/	.	1c	1c	.	.	.	.	.	.	.	.	.	.	.	.
.	.	.	.	2G\	.	.	.	1C	.	.	.	.	.	.	.	.	.	.	.	.	.	.	.
.	.	.	.	.	.	4A/	4G/	.	.	.	.	.	.	.	.	.	.	.	.	.	.	.	.
.	.	.	.	[2A\	.	[2e\	4E/	.	.	2C/	2c\	.	.	.	.	.	.	.	.	.	.	.	.
.	.	.	.	.	.	.	4G/	.	.	.	.	.	.	.	.	.	.	.	.	.	.	.	.
=58	=58	=58	=58	=58	=58	=58	=58	=58	=58	=58	=58	=58	=58	=58	=58	=58	=58	=58	=58	=58	=58	=58	=58
0r	0r	0r	0r	2A\]	2r	4e\]	1F	0r	1r	2D/	2A/	0r	0r	0r	0r	0r	0r	0r	0r	0r	0r	0r	2r
.	.	.	.	.	.	8d\L	.	.	.	.	.	.	.	.	.	.	.	.	.	.	.	.	.
.	.	.	.	.	.	8c\J	.	.	.	.	.	.	.	.	.	.	.	.	.	.	.	.	.
.	.	.	.	4G\	2F\	2d\	.	.	.	2D/	2F/	.	.	.	.	.	.	.	.	.	.	.	2dd\
.	.	.	.	4F\	.	.	.	.	.	.	.	.	.	.	.	.	.	.	.	.	.	.	.
.	.	.	.	2E\	2G\	2.e\	2r	.	2.c\	1C	[1c	.	.	.	.	.	.	.	.	.	.	.	2g/
.	.	.	.	2AA/	[2A\	.	2E/	.	.	.	.	.	.	.	.	.	.	.	.	.	.	.	2cc\
.	.	.	.	.	.	4d\	.	.	4B\	.	.	.	.	.	.	.	.	.	.	.	.	.	.
=59	=59	=59	=59	=59	=59	=59	=59	=59	=59	=59	=59	=59	=59	=59	=59	=59	=59	=59	=59	=59	=59	=59	=59
0r	0r	0r	2r	0r	4A\]	4c\	2F/	0r	4c\	2r	2c\]	0r	0r	0r	0r	0r	0r	0r	0r	0r	0r	0r	4cc\
.	.	.	.	.	4G\	4B\	.	.	4d\	.	.	.	.	.	.	.	.	.	.	.	.	.	4b\
.	.	.	2F\	.	4F\	2.A/	2F/	.	1c	1c	4B\	.	.	.	.	.	.	.	.	.	.	.	4a/
.	.	.	.	.	4D\	.	.	.	.	.	4A/	.	.	.	.	.	.	.	.	.	.	.	4g/
.	.	.	2G\	.	2E\	.	1C	.	.	.	4c\	.	.	.	.	.	.	.	.	.	.	.	2g/
.	.	.	.	.	.	4G/	.	.	.	.	4B\	.	.	.	.	.	.	.	.	.	.	.	.
.	.	.	[2A\	.	2AA/	4E/	.	.	2C/	2c\	2e\	.	.	.	.	.	.	.	.	.	.	.	2c/
.	.	.	.	.	.	4G/	.	.	.	.	.	.	.	.	.	.	.	.	.	.	.	.	.
=60	=60	=60	=60	=60	=60	=60	=60	=60	=60	=60	=60	=60	=60	=60	=60	=60	=60	=60	=60	=60	=60	=60	=60
0r	0r	0r	2A\]	2r	0r	1F	0r	1r	2D/	2A/	2f\	0r	0r	0r	0r	0r	2r	0r	0r	0r	0r	2r	2r
.	.	.	4G\	2F\	.	.	.	.	2D/	2F/	2d\	.	.	.	.	.	2A/	.	.	.	.	2dd\	2d/
.	.	.	4F\	.	.	.	.	.	.	.	.	.	.	.	.	.	.	.	.	.	.	.	.
.	.	.	2E\	2G\	.	2r	.	2.c\	1C	[1c	2.e\	.	.	.	.	.	2e\	.	.	.	.	2g/	2g/
.	.	.	2AA/	[2A\	.	2E/	.	.	.	.	.	.	.	.	.	.	2c\	.	.	.	.	2cc\	4f/
.	.	.	.	.	.	.	.	4B\	.	.	4A/	.	.	.	.	.	.	.	.	.	.	.	4e/
=61	=61	=61	=61	=61	=61	=61	=61	=61	=61	=61	=61	=61	=61	=61	=61	=61	=61	=61	=61	=61	=61	=61	=61
0r	0r	2r	0r	4A\]	2r	2F/	0r	4c\	2r	2c\]	1A	0r	0r	0r	0r	0r	1f	0r	0r	0r	0r	4cc\	1a
.	.	.	.	4G\	.	.	.	4d\	.	.	.	.	.	.	.	.	.	.	.	.	.	4b\	.
.	.	2F\	.	4F\	2AA/	2F/	.	1c	1c	4B\	.	.	.	.	.	.	.	.	.	.	.	4a/	.
.	.	.	.	4D\	.	.	.	.	.	4A/	.	.	.	.	.	.	.	.	.	.	.	4g/	.
.	.	2G\	.	2E\	2E\	1C	.	.	.	4c\	1r	.	.	.	.	.	1r	.	.	.	.	2g/	1r
.	.	.	.	.	.	.	.	.	.	4B\	.	.	.	.	.	.	.	.	.	.	.	.	.
.	.	[2A\	.	2AA/	2C/	.	.	2C/	2c\	2e\	.	.	.	.	.	.	.	.	.	.	.	2c/	.
=62	=62	=62	=62	=62	=62	=62	=62	=62	=62	=62	=62	=62	=62	=62	=62	=62	=62	=62	=62	=62	=62	=62	=62
0r	0r	2A\]	2r	0r	1F	0r	1r	2D/	2A/	2f\	0r	0r	0r	0r	0r	2r	0r	0r	0r	0r	2r	2r	0r
.	.	4G\	2F\	.	.	.	.	2D/	2F/	2d\	.	.	.	.	.	2A/	.	.	.	.	2dd\	2d/	.
.	.	4F\	.	.	.	.	.	.	.	.	.	.	.	.	.	.	.	.	.	.	.	.	.
.	.	2E\	2G\	.	2r	.	2.c\	1C	[1c	2.e\	.	.	.	.	.	2e\	.	.	.	.	2g/	2g/	.
.	.	2AA/	[2A\	.	2FF/	.	.	.	.	.	.	.	.	.	.	2c\	.	.	.	.	2cc\	4f/	.
.	.	.	.	.	.	.	4B\	.	.	4A/	.	.	.	.	.	.	.	.	.	.	.	4e/	.
=63	=63	=63	=63	=63	=63	=63	=63	=63	=63	=63	=63	=63	=63	=63	=63	=63	=63	=63	=63	=63	=63	=63	=63
0r	2r	0r	4A\]	2r	2FF/	0r	4c\	2r	2c\]	1A	0r	0r	0r	0r	0r	1f	0r	0r	0r	0r	4cc\	1a	0r
.	.	.	4G\	.	.	.	4d\	.	.	.	.	.	.	.	.	.	.	.	.	.	4b\	.	.
.	2F\	.	4F\	2AA/	2FF/	.	1c	1c	4B\	.	.	.	.	.	.	.	.	.	.	.	4a/	.	.
.	.	.	4D\	.	.	.	.	.	4A/	.	.	.	.	.	.	.	.	.	.	.	4g/	.	.
.	2G\	.	2E\	2E\	1C	.	.	.	4c\	1r	.	.	.	.	.	1r	.	.	.	.	2g/	1r	.
.	.	.	.	.	.	.	.	.	4B\	.	.	.	.	.	.	.	.	.	.	.	.	.	.
.	[2A\	.	2AA/	2C/	.	.	2C/	2c\	2e\	.	.	.	.	.	.	.	.	.	.	.	2c/	.	.
=64	=64	=64	=64	=64	=64	=64	=64	=64	=64	=64	=64	=64	=64	=64	=64	=64	=64	=64	=64	=64	=64	=64	=64
!	!	!	!	!	!	!	!	!	!LO:TX:Y=65:t=- 11 -	!	!	!	!	!	!	!	!	!	!	!	!	!	!
0r	2A\]	2r	0r	1F	0r	1r	2D/	2A/	2f\	0r	0r	0r	0r	0r	2r	0r	0r	0r	0r	2r	2r	0r	0r
.	4G\	2F\	.	.	.	.	2D/	2F/	2d\	.	.	.	.	.	2A/	.	.	.	.	2dd\	2d/	.	.
.	4F\	.	.	.	.	.	.	.	.	.	.	.	.	.	.	.	.	.	.	.	.	.	.
.	2E\	2G\	.	2r	.	2.c\	1C	[1c	2.e\	.	.	.	.	.	2e\	.	.	.	.	2g/	2g/	.	.
.	2AA/	[2A\	.	2FF/	.	.	.	.	.	.	.	.	.	.	2c\	.	.	.	.	2cc\	4f/	.	.
.	.	.	.	.	.	4B\	.	.	4A/	.	.	.	.	.	.	.	.	.	.	.	4e/	.	.
=65	=65	=65	=65	=65	=65	=65	=65	=65	=65	=65	=65	=65	=65	=65	=65	=65	=65	=65	=65	=65	=65	=65	=65
2r	0r	4A\]	2r	2FF/	0r	4c\	2r	2c\]	1A	0r	0r	0r	0r	0r	1f	0r	0r	0r	0r	4cc\	1a	0r	0r
.	.	4G\	.	.	.	4d\	.	.	.	.	.	.	.	.	.	.	.	.	.	4b\	.	.	.
2F\	.	4F\	2AA/	2FF/	.	1c	1c	4B\	.	.	.	.	.	.	.	.	.	.	.	4a/	.	.	.
.	.	4D\	.	.	.	.	.	4A/	.	.	.	.	.	.	.	.	.	.	.	4g/	.	.	.
2G\	.	2E\	2E\	1C	.	.	.	4c\	1r	.	.	.	.	.	1r	.	.	.	.	2g/	1r	.	.
.	.	.	.	.	.	.	.	4B\	.	.	.	.	.	.	.	.	.	.	.	.	.	.	.
[2A\	.	2AA/	2C/	.	.	2C/	2c\	2e\	.	.	.	.	.	.	.	.	.	.	.	2c/	.	.	.
=66	=66	=66	=66	=66	=66	=66	=66	=66	=66	=66	=66	=66	=66	=66	=66	=66	=66	=66	=66	=66	=66	=66	=66
2A\]	2r	0r	1F	0r	1r	2D/	2A/	2f\	0r	0r	0r	0r	0r	2r	0r	0r	0r	0r	2r	2r	0r	0r	0r
4G\	2F\	.	.	.	.	2D/	2F/	2d\	.	.	.	.	.	2A/	.	.	.	.	2dd\	2d/	.	.	.
4F\	.	.	.	.	.	.	.	.	.	.	.	.	.	.	.	.	.	.	.	.	.	.	.
2E\	2G\	.	2r	.	2r	1C	[1c	2.e\	.	.	.	.	.	2e\	.	.	.	.	2g/	2g/	.	.	.
2AA/	[2A\	.	2FF/	.	2AA/	.	.	.	.	.	.	.	.	2c\	.	.	.	.	2cc\	4f/	.	.	.
.	.	.	.	.	.	.	.	4A/	.	.	.	.	.	.	.	.	.	.	.	4e/	.	.	.
=67	=67	=67	=67	=67	=67	=67	=67	=67	=67	=67	=67	=67	=67	=67	=67	=67	=67	=67	=67	=67	=67	=67	=67
0r	4A\]	2r	2FF/	0r	2C/	2r	2c\]	1A	0r	0r	0r	0r	0r	1f	0r	0r	0r	0r	4cc\	1a	0r	0r	0r
.	4G\	.	.	.	.	.	.	.	.	.	.	.	.	.	.	.	.	.	4b\	.	.	.	.
.	4F\	2AA/	2FF/	.	2C/	1c	4B\	.	.	.	.	.	.	.	.	.	.	.	4a/	.	.	.	.
.	4D\	.	.	.	.	.	4A/	.	.	.	.	.	.	.	.	.	.	.	4g/	.	.	.	.
.	2E\	2E\	1C	.	1C	.	4c\	1r	.	.	.	.	.	1r	.	.	.	.	2g/	1r	.	.	.
.	.	.	.	.	.	.	4B\	.	.	.	.	.	.	.	.	.	.	.	.	.	.	.	.
.	2AA/	2C/	.	.	.	2c\	2e\	.	.	.	.	.	.	.	.	.	.	.	2c/	.	.	.	.
=68	=68	=68	=68	=68	=68	=68	=68	=68	=68	=68	=68	=68	=68	=68	=68	=68	=68	=68	=68	=68	=68	=68	=68
2r	0r	1F	0r	1r	1D	2A/	2f\	0r	0r	0r	0r	0r	2r	0r	0r	0r	0r	2r	2r	0r	0r	0r	0r
2F\	.	.	.	.	.	2F/	2d\	.	.	.	.	.	2A/	.	.	.	.	2dd\	2d/	.	.	.	.
2G\	.	2r	.	2r	1C	[1c	2.e\	.	.	.	.	.	2e\	.	.	.	.	2g/	2g/	.	.	.	.
[2A\	.	2FF/	.	2AA/	.	.	.	.	.	.	.	.	2c\	.	.	.	.	2cc\	4f/	.	.	.	.
.	.	.	.	.	.	.	4A/	.	.	.	.	.	.	.	.	.	.	.	4e/	.	.	.	.
=69	=69	=69	=69	=69	=69	=69	=69	=69	=69	=69	=69	=69	=69	=69	=69	=69	=69	=69	=69	=69	=69	=69	=69
4A\]	2r	2FF/	0r	2C/	1r	2c\]	1A	0r	0r	0r	0r	0r	1f	0r	0r	0r	1f	4cc\	1a	0r	0r	0r	1a
4G\	.	.	.	.	.	.	.	.	.	.	.	.	.	.	.	.	.	4b\	.	.	.	.	.
4F\	2AA/	2FF/	.	2C/	.	4B\	.	.	.	.	.	.	.	.	.	.	.	4a/	.	.	.	.	.
4D\	.	.	.	.	.	4A/	.	.	.	.	.	.	.	.	.	.	.	4g/	.	.	.	.	.
2E\	2E\	1C	.	1C	1c	4c\	1r	.	.	.	.	.	1r	.	.	.	1e	2g/	1r	.	.	.	2g/
.	.	.	.	.	.	4B\	.	.	.	.	.	.	.	.	.	.	.	.	.	.	.	.	.
2AA/	2C/	.	.	.	.	2e\	.	.	.	.	.	.	.	.	.	.	.	2c/	.	.	.	.	2e/
=70	=70	=70	=70	=70	=70	=70	=70	=70	=70	=70	=70	=70	=70	=70	=70	=70	=70	=70	=70	=70	=70	=70	=70
0r	1F	0r	1r	1D	2.A\	2f\	0r	0r	0r	0r	0r	2r	0r	0r	0r	0r	2d\	2r	0r	0r	0r	0r	2a/
.	.	.	.	.	.	2d\	.	.	.	.	.	2A/	.	.	.	.	2f\	2d/	.	.	.	.	2f/
.	.	.	.	.	4F\	.	.	.	.	.	.	.	.	.	.	.	.	.	.	.	.	.	.
.	2r	.	2r	1C	2.c\	2.e\	.	.	.	.	.	2e\	.	.	.	.	2e\	2g/	.	.	.	.	2g/
.	2FF/	.	2AA/	.	.	.	.	.	.	.	.	2c\	.	.	.	.	2f\	4f/	.	.	.	.	[2a/
.	.	.	.	.	4B\	4A/	.	.	.	.	.	.	.	.	.	.	.	4e/	.	.	.	.	.
=71	=71	=71	=71	=71	=71	=71	=71	=71	=71	=71	=71	=71	=71	=71	=71	=71	=71	=71	=71	=71	=71	=71	=71
2r	2FF/	0r	2C/	1r	4A\	1A	0r	0r	0r	0r	0r	1f	0r	0r	0r	1f	0c	1a	0r	0r	0r	1a	4a/]
.	.	.	.	.	4G\	.	.	.	.	.	.	.	.	.	.	.	.	.	.	.	.	.	4b\
2AA/	2FF/	.	2C/	.	2F\	.	.	.	.	.	.	.	.	.	.	.	.	.	.	.	.	.	2.cc\
2E\	1C	.	1C	1c	2G\	1r	.	.	.	.	.	1r	.	.	.	1e	.	1r	.	.	.	2g/	.
.	.	.	.	.	.	.	.	.	.	.	.	.	.	.	.	.	.	.	.	.	.	.	8b/L
.	.	.	.	.	.	.	.	.	.	.	.	.	.	.	.	.	.	.	.	.	.	.	8a/J
2C/	.	.	.	.	[2A\	.	.	.	.	.	.	.	.	.	.	.	.	.	.	.	.	2e/	2ee\
=72	=72	=72	=72	=72	=72	=72	=72	=72	=72	=72	=72	=72	=72	=72	=72	=72	=72	=72	=72	=72	=72	=72	=72
1F	0r	1r	1D	2.A\	4A\]	0r	0r	0r	0r	0r	0r	0r	0r	0r	0r	2d\	1r	0r	0r	0r	0r	2a/	2ff\
.	.	.	.	.	4G\	.	.	.	.	.	.	.	.	.	.	.	.	.	.	.	.	.	.
.	.	.	.	.	4A\	.	.	.	.	.	.	.	.	.	.	2f\	.	.	.	.	.	2f/	2dd\
.	.	.	.	4F\	4B-i\	.	.	.	.	.	.	.	.	.	.	.	.	.	.	.	.	.	.
2r	.	2r	1C	2.c\	2G\	.	.	.	.	.	.	.	.	.	.	2e\	2r	.	.	.	.	2g/	2ee\
2FF/	.	2AA/	.	.	2F\	.	.	.	.	.	.	.	.	.	.	2f\	[2c\	.	.	.	.	[2a/	2a/
.	.	.	.	4B\	.	.	.	.	.	.	.	.	.	.	.	.	.	.	.	.	.	.	.
=73	=73	=73	=73	=73	=73	=73	=73	=73	=73	=73	=73	=73	=73	=73	=73	=73	=73	=73	=73	=73	=73	=73	=73
2FF/	0r	2C/	1r	4A\	0r	0r	0r	0r	0r	0r	0r	0r	0r	0r	1f	0c	2c\]	0r	0r	0r	1a	4a/]	1a
.	.	.	.	4G\	.	.	.	.	.	.	.	.	.	.	.	.	.	.	.	.	.	4b\	.
2FF/	.	2C/	.	2F\	.	.	.	.	.	.	.	.	.	.	.	.	4B\	.	.	.	.	2.cc\	.
.	.	.	.	.	.	.	.	.	.	.	.	.	.	.	.	.	4A/	.	.	.	.	.	.
1C	.	1C	1c	2G\	.	.	.	.	.	.	.	.	.	.	1e	.	2e\	.	.	.	2g/	.	1r
.	.	.	.	.	.	.	.	.	.	.	.	.	.	.	.	.	.	.	.	.	.	8b/L	.
.	.	.	.	.	.	.	.	.	.	.	.	.	.	.	.	.	.	.	.	.	.	8a/J	.
.	.	.	.	[2A\	.	.	.	.	.	.	.	.	.	.	.	.	2c\	.	.	.	2e/	2ee\	.
=74	=74	=74	=74	=74	=74	=74	=74	=74	=74	=74	=74	=74	=74	=74	=74	=74	=74	=74	=74	=74	=74	=74	=74
0r	1r	1D	2.A\	4A\]	2r	0r	0r	0r	0r	0r	0r	0r	0r	0r	2d\	1r	1f	0r	0r	0r	2a/	2ff\	0r
.	.	.	.	4G\	.	.	.	.	.	.	.	.	.	.	.	.	.	.	.	.	.	.	.
.	.	.	.	4A\	2FF/	.	.	.	.	.	.	.	.	.	2f\	.	.	.	.	.	2f/	2dd\	.
.	.	.	4F\	4B-i\	.	.	.	.	.	.	.	.	.	.	.	.	.	.	.	.	.	.	.
.	2r	1C	2.c\	2G\	1C	.	.	.	.	.	.	.	.	.	2e\	2r	2r	.	.	.	2g/	2ee\	.
.	2AA/	.	.	2F\	.	.	.	.	.	.	.	.	.	.	2f\	[2c\	[2F/	.	.	.	[2a/	2a/	.
.	.	.	4B\	.	.	.	.	.	.	.	.	.	.	.	.	.	.	.	.	.	.	.	.
=75	=75	=75	=75	=75	=75	=75	=75	=75	=75	=75	=75	=75	=75	=75	=75	=75	=75	=75	=75	=75	=75	=75	=75
0r	2C/	1r	4A\	0r	1FF	0r	0r	0r	0r	0r	0r	0r	0r	1f	0c	2c\]	4F/]	0r	0r	1a	4a/]	1a	2.cc\
.	.	.	4G\	.	.	.	.	.	.	.	.	.	.	.	.	.	4E/	.	.	.	4b\	.	.
.	2C/	.	2F\	.	.	.	.	.	.	.	.	.	.	.	.	4B\	2A/	.	.	.	2.cc\	.	.
.	.	.	.	.	.	.	.	.	.	.	.	.	.	.	.	4A/	.	.	.	.	.	.	4cc\
.	1C	1c	2G\	.	1r	.	.	.	.	.	.	.	.	1e	.	2e\	2E/	.	.	2g/	.	1r	2cc\
.	.	.	.	.	.	.	.	.	.	.	.	.	.	.	.	.	.	.	.	.	8b/L	.	.
.	.	.	.	.	.	.	.	.	.	.	.	.	.	.	.	.	.	.	.	.	8a/J	.	.
.	.	.	[2A\	.	.	.	.	.	.	.	.	.	.	.	.	2c\	[2A/	.	.	2e/	2ee\	.	2a/
=76	=76	=76	=76	=76	=76	=76	=76	=76	=76	=76	=76	=76	=76	=76	=76	=76	=76	=76	=76	=76	=76	=76	=76
1r	1D	2.A\	4A\]	2r	0r	0r	0r	0r	0r	0r	0r	0r	0r	2d\	1r	1f	4A/]	0r	0r	2a/	2ff\	0r	0r
.	.	.	4G\	.	.	.	.	.	.	.	.	.	.	.	.	.	8B\L	.	.	.	.	.	.
.	.	.	.	.	.	.	.	.	.	.	.	.	.	.	.	.	8c\J	.	.	.	.	.	.
.	.	.	4A\	2FF/	.	.	.	.	.	.	.	.	.	2f\	.	.	2d\	.	.	2f/	2dd\	.	.
.	.	4F\	4B-i\	.	.	.	.	.	.	.	.	.	.	.	.	.	.	.	.	.	.	.	.
2r	1C	2.c\	2G\	1C	.	.	.	.	.	.	.	.	.	2e\	2r	2r	2G/	.	.	2g/	2ee\	.	.
2AA/	.	.	2F\	.	.	.	.	.	.	.	.	.	.	2f\	[2c\	[2F/	[2c\	.	.	[2a/	2a/	.	.
.	.	4B\	.	.	.	.	.	.	.	.	.	.	.	.	.	.	.	.	.	.	.	.	.
=77	=77	=77	=77	=77	=77	=77	=77	=77	=77	=77	=77	=77	=77	=77	=77	=77	=77	=77	=77	=77	=77	=77	=77
2C/	1r	4A\	0r	1FF	0r	0r	0r	0r	0r	0r	0r	0r	1f	0c	2c\]	4F/]	4c\]	0r	1a	4a/]	1a	2.cc\	0r
.	.	4G\	.	.	.	.	.	.	.	.	.	.	.	.	.	4E/	8d\L	.	.	4b\	.	.	.
.	.	.	.	.	.	.	.	.	.	.	.	.	.	.	.	.	8e\J	.	.	.	.	.	.
2C/	.	2F\	.	.	.	.	.	.	.	.	.	.	.	.	4B\	2A/	2f\	.	.	2.cc\	.	.	.
.	.	.	.	.	.	.	.	.	.	.	.	.	.	.	4A/	.	.	.	.	.	.	4cc\	.
1C	1c	2G\	.	1r	.	.	.	.	.	.	.	.	1e	.	2e\	2E/	1c	.	2g/	.	1r	2cc\	.
.	.	.	.	.	.	.	.	.	.	.	.	.	.	.	.	.	.	.	.	8b/L	.	.	.
.	.	.	.	.	.	.	.	.	.	.	.	.	.	.	.	.	.	.	.	8a/J	.	.	.
.	.	[2A\	.	.	.	.	.	.	.	.	.	.	.	.	2c\	[2A/	.	.	2e/	2ee\	.	2a/	.
=78	=78	=78	=78	=78	=78	=78	=78	=78	=78	=78	=78	=78	=78	=78	=78	=78	=78	=78	=78	=78	=78	=78	=78
1D	2.A\	4A\]	2r	0r	0r	0r	0r	0r	0r	0r	0r	0r	2d\	1r	1f	4A/]	2r	0r	2a/	2ff\	0r	0r	1r
.	.	4G\	.	.	.	.	.	.	.	.	.	.	.	.	.	8B\L	.	.	.	.	.	.	.
.	.	.	.	.	.	.	.	.	.	.	.	.	.	.	.	8c\J	.	.	.	.	.	.	.
.	.	4A\	2FF/	.	.	.	.	.	.	.	.	.	2f\	.	.	2d\	2.c\	.	2f/	2dd\	.	.	.
.	4F\	4B-i\	.	.	.	.	.	.	.	.	.	.	.	.	.	.	.	.	.	.	.	.	.
1C	2.c\	2G\	1C	.	.	.	.	.	.	.	.	.	2e\	2r	2r	2G/	.	.	2g/	2ee\	.	.	2r
.	.	.	.	.	.	.	.	.	.	.	.	.	.	.	.	.	4c\	.	.	.	.	.	.
.	.	2F\	.	.	.	.	.	.	.	.	.	.	2f\	[2c\	[2F/	[2c\	2c\	.	[2a/	2a/	.	.	[2cc\
.	4B\	.	.	.	.	.	.	.	.	.	.	.	.	.	.	.	.	.	.	.	.	.	.
=79	=79	=79	=79	=79	=79	=79	=79	=79	=79	=79	=79	=79	=79	=79	=79	=79	=79	=79	=79	=79	=79	=79	=79
1r	4A\	0r	1FF	0r	0r	0r	0r	0r	0r	0r	1r	1f	0c	2c\]	4F/]	4c\]	1F	1a	4a/]	1a	2.cc\	0r	4cc\]
.	4G\	.	.	.	.	.	.	.	.	.	.	.	.	.	4E/	8d\L	.	.	4b\	.	.	.	4b\
.	.	.	.	.	.	.	.	.	.	.	.	.	.	.	.	8e\J	.	.	.	.	.	.	.
.	2F\	.	.	.	.	.	.	.	.	.	.	.	.	4B\	2A/	2f\	.	.	2.cc\	.	.	.	2a/
.	.	.	.	.	.	.	.	.	.	.	.	.	.	4A/	.	.	.	.	.	.	4cc\	.	.
1c	2G\	.	1r	.	.	.	.	.	.	.	1C	1e	.	2e\	2E/	1c	1r	2g/	.	1r	2cc\	.	2g/
.	.	.	.	.	.	.	.	.	.	.	.	.	.	.	.	.	.	.	8b/L	.	.	.	.
.	.	.	.	.	.	.	.	.	.	.	.	.	.	.	.	.	.	.	8a/J	.	.	.	.
.	[2A\	.	.	.	.	.	.	.	.	.	.	.	.	2c\	[2A/	.	.	2e/	2ee\	.	2a/	.	[2cc\
=80	=80	=80	=80	=80	=80	=80	=80	=80	=80	=80	=80	=80	=80	=80	=80	=80	=80	=80	=80	=80	=80	=80	=80
2.A\	4A\]	2r	0r	0r	1r	0r	0r	0r	0r	0r	2D/	2d\	1r	1f	4A/]	2r	2.f\	2a/	2ff\	0r	0r	1r	4cc\]
.	4G\	.	.	.	.	.	.	.	.	.	.	.	.	.	8B\L	.	.	.	.	.	.	.	4b\
.	.	.	.	.	.	.	.	.	.	.	.	.	.	.	8c\J	.	.	.	.	.	.	.	.
.	4A\	2FF/	.	.	.	.	.	.	.	.	2D/	2f\	.	.	2d\	2.c\	.	2f/	2dd\	.	.	.	4a/
4F\	4B-i\	.	.	.	.	.	.	.	.	.	.	.	.	.	.	.	4f\	.	.	.	.	.	4g/
2.c\	2G\	1C	.	.	2r	.	.	.	.	.	2C/	2e\	2r	2r	2G/	.	2e\	2g/	2ee\	.	.	2r	2g/
.	.	.	.	.	.	.	.	.	.	.	.	.	.	.	.	4c\	.	.	.	.	.	.	.
.	2F\	.	.	.	2FF/	.	.	.	.	.	2C/	2f\	[2c\	[2F/	[2c\	2c\	2e\	[2a/	2a/	.	.	[2cc\	2r
4B\	.	.	.	.	.	.	.	.	.	.	.	.	.	.	.	.	.	.	.	.	.	.	.
=81	=81	=81	=81	=81	=81	=81	=81	=81	=81	=81	=81	=81	=81	=81	=81	=81	=81	=81	=81	=81	=81	=81	=81
4A\	0r	1FF	0r	0r	2FF/	0r	0r	0r	0r	1r	2.F/	0c	2c\]	4F/]	4c\]	1F	4d\	4a/]	1a	2.cc\	0r	4cc\]	0r
4G\	.	.	.	.	.	.	.	.	.	.	.	.	.	4E/	8d\L	.	4e\	4b\	.	.	.	4b\	.
.	.	.	.	.	.	.	.	.	.	.	.	.	.	.	8e\J	.	.	.	.	.	.	.	.
2F\	.	.	.	.	2FF/	.	.	.	.	.	.	.	4B\	2A/	2f\	.	4f\	2.cc\	.	.	.	2a/	.
.	.	.	.	.	.	.	.	.	.	.	8E/L	.	4A/	.	.	.	4d\	.	.	4cc\	.	.	.
.	.	.	.	.	.	.	.	.	.	.	8D/J	.	.	.	.	.	.	.	.	.	.	.	.
2G\	.	1r	.	.	1C	.	.	.	.	1C	2G/	.	2e\	2E/	1c	1r	2g\	.	1r	2cc\	.	2g/	.
.	.	.	.	.	.	.	.	.	.	.	.	.	.	.	.	.	.	8b/L	.	.	.	.	.
.	.	.	.	.	.	.	.	.	.	.	.	.	.	.	.	.	.	8a/J	.	.	.	.	.
[2A\	.	.	.	.	.	.	.	.	.	.	2E/	.	2c\	[2A/	.	.	2c\	2ee\	.	2a/	.	[2cc\	.
=82	=82	=82	=82	=82	=82	=82	=82	=82	=82	=82	=82	=82	=82	=82	=82	=82	=82	=82	=82	=82	=82	=82	=82
4A\]	2r	0r	0r	1r	2r	0r	0r	0r	0r	2D/	2A/	1r	1f	4A/]	2r	2.f\	0r	2ff\	0r	0r	1r	4cc\]	0r
4G\	.	.	.	.	.	.	.	.	.	.	.	.	.	8B\L	.	.	.	.	.	.	.	4b\	.
.	.	.	.	.	.	.	.	.	.	.	.	.	.	8c\J	.	.	.	.	.	.	.	.	.
4A\	2FF/	.	.	.	2F\	.	.	.	.	2D/	2F/	.	.	2d\	2.c\	.	.	2dd\	.	.	.	4a/	.
4B-i\	.	.	.	.	.	.	.	.	.	.	.	.	.	.	.	4f\	.	.	.	.	.	4g/	.
2G\	1C	.	.	2r	2E\	.	.	.	.	2C/	2r	2r	2r	2G/	.	2e\	.	2ee\	.	.	2r	2g/	.
.	.	.	.	.	.	.	.	.	.	.	.	.	.	.	4c\	.	.	.	.	.	.	.	.
2F\	.	.	.	2FF/	[2A\	.	.	.	.	2C/	2c\	[2c\	[2F/	[2c\	2c\	2e\	.	2a/	.	.	[2cc\	2r	.
=83	=83	=83	=83	=83	=83	=83	=83	=83	=83	=83	=83	=83	=83	=83	=83	=83	=83	=83	=83	=83	=83	=83	=83
0r	1FF	0r	0r	2FF/	4A\]	0r	0r	0r	1r	2.F/	2.A/	2c\]	4F/]	4c\]	1F	4d\	0r	1a	2.cc\	0r	4cc\]	0r	2r
.	.	.	.	.	4G\	.	.	.	.	.	.	.	4E/	8d\L	.	4e\	.	.	.	.	4b\	.	.
.	.	.	.	.	.	.	.	.	.	.	.	.	.	8e\J	.	.	.	.	.	.	.	.	.
.	.	.	.	2FF/	4F\	.	.	.	.	.	.	4B\	2A/	2f\	.	4f\	.	.	.	.	2a/	.	2cc\
.	.	.	.	.	4D\	.	.	.	.	8E/L	4F/	4A/	.	.	.	4d\	.	.	4cc\	.	.	.	.
.	.	.	.	.	.	.	.	.	.	8D/J	.	.	.	.	.	.	.	.	.	.	.	.	.
.	1r	.	.	1C	2E\	.	.	.	1C	2G/	2G/	2e\	2E/	1c	1r	2g\	.	1r	2cc\	.	2g/	.	2cc\
.	.	.	.	.	2AA/	.	.	.	.	2E/	2A/	2c\	[2A/	.	.	2c\	.	.	2a/	.	[2cc\	.	2ee\
=84	=84	=84	=84	=84	=84	=84	=84	=84	=84	=84	=84	=84	=84	=84	=84	=84	=84	=84	=84	=84	=84	=84	=84
2r	0r	0r	1r	2r	0r	0r	0r	0r	2D/	2A/	1D	1f	4A/]	2r	2.f\	0r	0r	0r	0r	1r	4cc\]	0r	2ff\
.	.	.	.	.	.	.	.	.	.	.	.	.	8B\L	.	.	.	.	.	.	.	4b\	.	.
.	.	.	.	.	.	.	.	.	.	.	.	.	8c\J	.	.	.	.	.	.	.	.	.	.
2FF/	.	.	.	2F\	.	.	.	.	2D/	2F/	.	.	2d\	2.c\	.	.	.	.	.	.	4a/	.	2dd\
.	.	.	.	.	.	.	.	.	.	.	.	.	.	.	4f\	.	.	.	.	.	4g/	.	.
1C	.	.	2r	2E\	.	.	.	.	2C/	2r	2r	2r	2G/	.	2e\	.	.	.	.	2r	2g/	.	2ee\
.	.	.	.	.	.	.	.	.	.	.	.	.	.	4c\	.	.	.	.	.	.	.	.	.
.	.	.	2FF/	[2A\	.	.	.	.	2C/	2c\	2A/	[2F/	[2c\	2c\	2e\	.	.	.	.	[2cc\	2r	.	2a/
=85	=85	=85	=85	=85	=85	=85	=85	=85	=85	=85	=85	=85	=85	=85	=85	=85	=85	=85	=85	=85	=85	=85	=85
1FF	0r	0r	2FF/	4A\]	0r	0r	0r	1r	2.F/	2.A/	2A/	4F/]	4c\]	1F	4d\	0r	0r	0r	0r	4cc\]	0r	2r	1a
.	.	.	.	4G\	.	.	.	.	.	.	.	4E/	8d\L	.	4e\	.	.	.	.	4b\	.	.	.
.	.	.	.	.	.	.	.	.	.	.	.	.	8e\J	.	.	.	.	.	.	.	.	.	.
.	.	.	2FF/	4F\	.	.	.	.	.	.	2A/	2A/	2f\	.	4f\	.	.	.	.	2a/	.	2cc\	.
.	.	.	.	4D\	.	.	.	.	8E/L	4F/	.	.	.	.	4d\	.	.	.	.	.	.	.	.
.	.	.	.	.	.	.	.	.	8D/J	.	.	.	.	.	.	.	.	.	.	.	.	.	.
1r	.	.	1C	2E\	.	.	.	1C	2G/	2G/	1c	2E/	1c	1r	2g\	.	.	.	.	2g/	.	2cc\	1r
.	.	.	.	2AA/	.	.	.	.	2E/	2A/	.	[2A/	.	.	2c\	.	.	.	.	[2cc\	.	2ee\	.
=86	=86	=86	=86	=86	=86	=86	=86	=86	=86	=86	=86	=86	=86	=86	=86	=86	=86	=86	=86	=86	=86	=86	=86
0r	0r	1r	2r	0r	0r	0r	0r	2D/	2A/	1D	2A/	4A/]	2r	2.f\	0r	0r	0r	0r	1r	4cc\]	0r	2ff\	0r
.	.	.	.	.	.	.	.	.	.	.	.	8B\L	.	.	.	.	.	.	.	4b\	.	.	.
.	.	.	.	.	.	.	.	.	.	.	.	8c\J	.	.	.	.	.	.	.	.	.	.	.
.	.	.	2F\	.	.	.	.	2D/	2F/	.	2A/	2d\	2.c\	.	.	.	.	.	.	4a/	.	2dd\	.
.	.	.	.	.	.	.	.	.	.	.	.	.	.	4f\	.	.	.	.	.	4g/	.	.	.
.	.	2r	2E\	.	.	.	.	2C/	2r	2r	2c\	2G/	.	2e\	.	.	.	.	2r	2g/	.	2ee\	.
.	.	.	.	.	.	.	.	.	.	.	.	.	4c\	.	.	.	.	.	.	.	.	.	.
.	.	2FF/	[2A\	.	.	.	.	2C/	2c\	2A/	2c\	[2c\	2c\	2e\	.	.	.	.	[2cc\	2r	.	2a/	.
=87	=87	=87	=87	=87	=87	=87	=87	=87	=87	=87	=87	=87	=87	=87	=87	=87	=87	=87	=87	=87	=87	=87	=87
0r	0r	2FF/	4A\]	0r	0r	0r	1r	2.F/	2.A/	2A/	1F	4c\]	1F	4d\	0r	0r	0r	0r	4cc\]	0r	2r	1a	0r
.	.	.	4G\	.	.	.	.	.	.	.	.	8d\L	.	4e\	.	.	.	.	4b\	.	.	.	.
.	.	.	.	.	.	.	.	.	.	.	.	8e\J	.	.	.	.	.	.	.	.	.	.	.
.	.	2FF/	4F\	.	.	.	.	.	.	2A/	.	2f\	.	4f\	.	.	.	.	2a/	.	2cc\	.	.
.	.	.	4D\	.	.	.	.	8E/L	4F/	.	.	.	.	4d\	.	.	.	.	.	.	.	.	.
.	.	.	.	.	.	.	.	8D/J	.	.	.	.	.	.	.	.	.	.	.	.	.	.	.
.	.	1C	2E\	.	.	.	1C	2G/	2G/	1c	1r	1c	1r	2g\	.	.	.	.	2g/	.	2cc\	1r	.
.	.	.	2AA/	.	.	.	.	2E/	2A/	.	.	.	.	2c\	.	.	.	.	[2cc\	.	2ee\	.	.
=88	=88	=88	=88	=88	=88	=88	=88	=88	=88	=88	=88	=88	=88	=88	=88	=88	=88	=88	=88	=88	=88	=88	=88
0r	1r	2r	0r	0r	0r	0r	2D/	2A/	1D	2A/	0r	2r	2.f\	0r	0r	0r	0r	1r	4cc\]	0r	2ff\	0r	0r
.	.	.	.	.	.	.	.	.	.	.	.	.	.	.	.	.	.	.	4b\	.	.	.	.
.	.	2F\	.	.	.	.	2D/	2F/	.	2A/	.	2.c\	.	.	.	.	.	.	4a/	.	2dd\	.	.
.	.	.	.	.	.	.	.	.	.	.	.	.	4f\	.	.	.	.	.	4g/	.	.	.	.
.	2r	2E\	.	.	.	.	2C/	2r	2r	2c\	.	.	2e\	.	.	.	.	2r	2g/	.	2ee\	.	.
.	.	.	.	.	.	.	.	.	.	.	.	4c\	.	.	.	.	.	.	.	.	.	.	.
.	2FF/	[2A\	.	.	.	.	2C/	2c\	2A/	2c\	.	2c\	2e\	.	.	.	.	[2cc\	2r	.	2a/	.	.
=89	=89	=89	=89	=89	=89	=89	=89	=89	=89	=89	=89	=89	=89	=89	=89	=89	=89	=89	=89	=89	=89	=89	=89
0r	2FF/	4A\]	0r	0r	0r	1r	2.F/	2.A/	2A/	1F	0r	1F	4d\	0r	0r	0r	0r	4cc\]	0r	2r	1a	0r	0r
.	.	4G\	.	.	.	.	.	.	.	.	.	.	4e\	.	.	.	.	4b\	.	.	.	.	.
.	2FF/	4F\	.	.	.	.	.	.	2A/	.	.	.	4f\	.	.	.	.	2a/	.	2cc\	.	.	.
.	.	4D\	.	.	.	.	8E/L	4F/	.	.	.	.	4d\	.	.	.	.	.	.	.	.	.	.
.	.	.	.	.	.	.	8D/J	.	.	.	.	.	.	.	.	.	.	.	.	.	.	.	.
.	1C	2E\	.	.	.	1C	2G/	2G/	1c	1r	.	1r	2g\	.	.	.	.	2g/	.	2cc\	1r	.	.
.	.	2AA/	.	.	.	.	2E/	2A/	.	.	.	.	2c\	.	.	.	.	[2cc\	.	2ee\	.	.	.
=90	=90	=90	=90	=90	=90	=90	=90	=90	=90	=90	=90	=90	=90	=90	=90	=90	=90	=90	=90	=90	=90	=90	=90
1r	2r	0r	0r	0r	0r	2D/	2A/	1D	2A/	0r	0r	2.f\	0r	0r	0r	0r	0r	4cc\]	0r	2ff\	0r	0r	0r
.	.	.	.	.	.	.	.	.	.	.	.	.	.	.	.	.	.	4b\	.	.	.	.	.
.	2F\	.	.	.	.	2D/	2F/	.	2A/	.	.	.	.	.	.	.	.	4a/	.	2dd\	.	.	.
.	.	.	.	.	.	.	.	.	.	.	.	4f\	.	.	.	.	.	4g/	.	.	.	.	.
2r	2E\	.	.	.	.	2C/	2r	2r	2c\	.	.	2e\	.	.	.	.	.	2g/	.	2ee\	.	.	.
2FF/	[2A\	.	.	.	.	2C/	2c\	2A/	2c\	.	.	2e\	.	.	.	.	.	2r	.	2a/	.	.	.
=91	=91	=91	=91	=91	=91	=91	=91	=91	=91	=91	=91	=91	=91	=91	=91	=91	=91	=91	=91	=91	=91	=91	=91
2FF/	4A\]	0r	0r	0r	1r	2.F/	2.A/	2A/	1F	0r	0r	4d\	0r	0r	0r	0r	0r	0r	2r	1a	0r	0r	0r
.	4G\	.	.	.	.	.	.	.	.	.	.	4e\	.	.	.	.	.	.	.	.	.	.	.
2FF/	4F\	.	.	.	.	.	.	2A/	.	.	.	4f\	.	.	.	.	.	.	2cc\	.	.	.	.
.	4D\	.	.	.	.	8E/L	4F/	.	.	.	.	4d\	.	.	.	.	.	.	.	.	.	.	.
.	.	.	.	.	.	8D/J	.	.	.	.	.	.	.	.	.	.	.	.	.	.	.	.	.
1C	2E\	.	.	.	1C	2G/	2G/	1c	1r	.	.	2g\	.	.	.	.	.	.	2cc\	1r	.	.	.
.	2AA/	.	.	.	.	2E/	2A/	.	.	.	.	2c\	.	.	.	.	.	.	2ee\	.	.	.	.
=92	=92	=92	=92	=92	=92	=92	=92	=92	=92	=92	=92	=92	=92	=92	=92	=92	=92	=92	=92	=92	=92	=92	=92
2r	0r	0r	0r	0r	1D	2A/	1D	2A/	0r	0r	0r	0r	0r	0r	0r	0r	0r	0r	2ff\	0r	0r	0r	1r
2F\	.	.	.	.	.	2F/	.	2A/	.	.	.	.	.	.	.	.	.	.	2dd\	.	.	.	.
2E\	.	.	.	.	1C	2r	2r	2c\	.	.	.	.	.	.	.	.	.	.	2ee\	.	.	.	2r
[2A\	.	.	.	.	.	2c\	2A/	2c\	.	.	.	.	.	.	.	.	.	.	2a/	.	.	.	[2ee\
=93	=93	=93	=93	=93	=93	=93	=93	=93	=93	=93	=93	=93	=93	=93	=93	=93	=93	=93	=93	=93	=93	=93	=93
4A\]	0r	0r	0r	1r	2.D\	2.A/	2A/	1F	0r	0r	0r	0r	0r	0r	0r	0r	0r	2r	1a	0r	0r	0r	2ee\]
4G\	.	.	.	.	.	.	.	.	.	.	.	.	.	.	.	.	.	.	.	.	.	.	.
4F\	.	.	.	.	.	.	2A/	.	.	.	.	.	.	.	.	.	.	2cc\	.	.	.	.	2a/
4D\	.	.	.	.	4C/	4F/	.	.	.	.	.	.	.	.	.	.	.	.	.	.	.	.	.
2E\	.	.	.	1C	1C	2G/	1c	1r	.	.	.	.	.	.	.	.	.	2cc\	1r	.	.	.	2ee\
2AA/	.	.	.	.	.	2A/	.	.	.	.	.	.	.	.	.	.	.	2ee\	.	.	.	.	2ee\
=94	=94	=94	=94	=94	=94	=94	=94	=94	=94	=94	=94	=94	=94	=94	=94	=94	=94	=94	=94	=94	=94	=94	=94
0r	0r	0r	0r	1D	2r	1D	2A/	0r	0r	0r	0r	0r	0r	0r	0r	0r	1r	2ff\	0r	0r	0r	1r	2r
.	.	.	.	.	2F\	.	2A/	.	.	.	.	.	.	.	.	.	.	2dd\	.	.	.	.	2dd\
.	.	.	.	1C	1G	2r	2c\	.	.	.	.	.	.	.	.	.	2r	2ee\	.	.	.	2r	2g/
.	.	.	.	.	.	2A/	2c\	.	.	.	.	.	.	.	.	.	2c\	2a/	.	.	.	[2ee\	2g/
=95	=95	=95	=95	=95	=95	=95	=95	=95	=95	=95	=95	=95	=95	=95	=95	=95	=95	=95	=95	=95	=95	=95	=95
0r	0r	0r	1r	2.D\	1F	2A/	1F	0r	0r	0r	1r	0r	0r	0r	0r	0r	1f	1a	0r	0r	0r	2ee\]	1dd
.	.	.	.	.	.	2A/	.	.	.	.	.	.	.	.	.	.	.	.	.	.	.	2a/	.
.	.	.	.	4C/	.	.	.	.	.	.	.	.	.	.	.	.	.	.	.	.	.	.	.
.	.	.	1C	1C	1G	1c	1r	.	.	.	2r	.	.	.	.	.	2e\	1r	.	.	.	2ee\	2g/
.	.	.	.	.	.	.	.	.	.	.	2c\	.	.	.	.	.	2c\	.	.	.	.	2ee\	2r
=96	=96	=96	=96	=96	=96	=96	=96	=96	=96	=96	=96	=96	=96	=96	=96	=96	=96	=96	=96	=96	=96	=96	=96
0r	0r	0r	1D	2r	2r	2A/	0r	0r	0r	0r	1f	0r	0r	0r	0r	1r	2r	0r	0r	0r	1r	2r	2.a/
.	.	.	.	2F\	2D\	2A/	.	.	.	.	.	.	.	.	.	.	2.A/	.	.	.	.	2dd\	.
.	.	.	.	.	.	.	.	.	.	.	.	.	.	.	.	.	.	.	.	.	.	.	4b\
.	.	.	1C	1G	2E\	2c\	.	.	.	.	1e	.	.	.	.	2r	.	.	.	.	2r	2g/	4cc\
.	.	.	.	.	.	.	.	.	.	.	.	.	.	.	.	.	4E/	.	.	.	.	.	4b\
.	.	.	.	.	2G\	2c\	.	.	.	.	.	.	.	.	.	2c\	[2e\	.	.	.	[2ee\	2g/	[2cc\
=97	=97	=97	=97	=97	=97	=97	=97	=97	=97	=97	=97	=97	=97	=97	=97	=97	=97	=97	=97	=97	=97	=97	=97
0r	0r	1r	2.D\	1F	1D	1F	0r	0r	0r	1r	2A/	0r	0r	0r	0r	1f	4e\]	0r	0r	0r	2ee\]	1dd	4cc\]
.	.	.	.	.	.	.	.	.	.	.	.	.	.	.	.	.	4c\	.	.	.	.	.	8b/L
.	.	.	.	.	.	.	.	.	.	.	.	.	.	.	.	.	.	.	.	.	.	.	8a/J
.	.	.	.	.	.	.	.	.	.	.	2.f\	.	.	.	.	.	2d\	.	.	.	2a/	.	2dd\
.	.	.	4C/	.	.	.	.	.	.	.	.	.	.	.	.	.	.	.	.	.	.	.	.
.	.	1C	1C	1G	2G\	1r	.	.	.	2r	.	.	.	.	.	2e\	1e	.	.	.	2ee\	2g/	2r
.	.	.	.	.	.	.	.	.	.	.	4c\	.	.	.	.	.	.	.	.	.	.	.	.
.	.	.	.	.	2E\	.	.	.	.	2c\	[2e\	.	.	.	.	2c\	.	.	.	.	2ee\	2r	[2g/
=98	=98	=98	=98	=98	=98	=98	=98	=98	=98	=98	=98	=98	=98	=98	=98	=98	=98	=98	=98	=98	=98	=98	=98
0r	0r	1D	2r	2r	2A\	0r	0r	0r	0r	1f	2e\]	0r	0r	0r	1r	2r	2r	0r	0r	1r	2r	2.a/	4g/]
.	.	.	.	.	.	.	.	.	.	.	.	.	.	.	.	.	.	.	.	.	.	.	4f/
.	.	.	2F\	2D\	2A\	.	.	.	.	.	2A/	.	.	.	.	2.A/	2d\	.	.	.	2dd\	.	2.a/
.	.	.	.	.	.	.	.	.	.	.	.	.	.	.	.	.	.	.	.	.	.	4b\	.
.	.	1C	1G	2E\	1E	.	.	.	.	1e	2e\	.	.	.	2r	.	2g\	.	.	2r	2g/	4cc\	.
.	.	.	.	.	.	.	.	.	.	.	.	.	.	.	.	4E/	.	.	.	.	.	4b\	8g/L
.	.	.	.	.	.	.	.	.	.	.	.	.	.	.	.	.	.	.	.	.	.	.	8f/J
.	.	.	.	2G\	.	.	.	.	.	.	2c\	.	.	.	2c\	[2e\	2e\	.	.	[2ee\	2g/	[2cc\	4g/
.	.	.	.	.	.	.	.	.	.	.	.	.	.	.	.	.	.	.	.	.	.	.	4e/
=99	=99	=99	=99	=99	=99	=99	=99	=99	=99	=99	=99	=99	=99	=99	=99	=99	=99	=99	=99	=99	=99	=99	=99
0r	1r	2.D\	1F	1D	2r	0r	0r	0r	1r	2A/	2c\	0r	0r	0r	1f	4e\]	1f	0r	0r	2ee\]	1dd	4cc\]	2a/
.	.	.	.	.	.	.	.	.	.	.	.	.	.	.	.	4c\	.	.	.	.	.	8b/L	.
.	.	.	.	.	.	.	.	.	.	.	.	.	.	.	.	.	.	.	.	.	.	8a/J	.
.	.	.	.	.	2A\	.	.	.	.	2.f\	2F/	.	.	.	.	2d\	.	.	.	2a/	.	2dd\	2f/
.	.	4C/	.	.	.	.	.	.	.	.	.	.	.	.	.	.	.	.	.	.	.	.	.
.	1C	1C	1G	2G\	2G\	.	.	.	2r	.	2.c\	.	.	.	2e\	1e	1c	.	.	2ee\	2g/	2r	2r
.	.	.	.	.	.	.	.	.	.	4c\	.	.	.	.	.	.	.	.	.	.	.	.	.
.	.	.	.	2E\	2G\	.	.	.	2c\	[2e\	.	.	.	.	2c\	.	.	.	.	2ee\	2r	[2g/	[2cc\
.	.	.	.	.	.	.	.	.	.	.	4B\	.	.	.	.	.	.	.	.	.	.	.	.
=100	=100	=100	=100	=100	=100	=100	=100	=100	=100	=100	=100	=100	=100	=100	=100	=100	=100	=100	=100	=100	=100	=100	=100
0r	1D	2r	2r	2A\	1F	0r	0r	0r	1f	2e\]	4A/	0r	0r	1r	2r	2r	0r	0r	1r	2r	2.a/	4g/]	4cc\]
.	.	.	.	.	.	.	.	.	.	.	4G/	.	.	.	.	.	.	.	.	.	.	4f/	4b\
.	.	2F\	2D\	2A\	.	.	.	.	.	2A/	2F/	.	.	.	2.A/	2d\	.	.	.	2dd\	.	2.a/	4a/
.	.	.	.	.	.	.	.	.	.	.	.	.	.	.	.	.	.	.	.	.	4b\	.	4g/
.	1C	1G	2E\	1E	1C	.	.	.	1e	2e\	1r	.	.	2r	.	2g\	.	.	2r	2g/	4cc\	.	2.cc\
.	.	.	.	.	.	.	.	.	.	.	.	.	.	.	4E/	.	.	.	.	.	4b\	8g/L	.
.	.	.	.	.	.	.	.	.	.	.	.	.	.	.	.	.	.	.	.	.	.	8f/J	.
.	.	.	2G\	.	.	.	.	.	.	2c\	.	.	.	2c\	[2e\	2e\	.	.	[2ee\	2g/	[2cc\	4g/	.
.	.	.	.	.	.	.	.	.	.	.	.	.	.	.	.	.	.	.	.	.	.	4e/	4b\
=101	=101	=101	=101	=101	=101	=101	=101	=101	=101	=101	=101	=101	=101	=101	=101	=101	=101	=101	=101	=101	=101	=101	=101
1r	2.D\	1F	1D	2r	1r	0r	0r	1r	2A/	2c\	1A	0r	0r	1f	4e\]	1f	0r	0r	2ee\]	1dd	4cc\]	2a/	1a
.	.	.	.	.	.	.	.	.	.	.	.	.	.	.	4c\	.	.	.	.	.	8b/L	.	.
.	.	.	.	.	.	.	.	.	.	.	.	.	.	.	.	.	.	.	.	.	8a/J	.	.
.	.	.	.	2A\	.	.	.	.	2.f\	2F/	.	.	.	.	2d\	.	.	.	2a/	.	2dd\	2f/	.
.	4C/	.	.	.	.	.	.	.	.	.	.	.	.	.	.	.	.	.	.	.	.	.	.
1C	1C	1G	2G\	2G\	2C/	.	.	2r	.	2.c\	1E	.	.	2e\	1e	1c	.	.	2ee\	2g/	2r	2r	1r
.	.	.	.	.	.	.	.	.	4c\	.	.	.	.	.	.	.	.	.	.	.	.	.	.
.	.	.	2E\	2G\	2C/	.	.	2c\	[2e\	.	.	.	.	2c\	.	.	.	.	2ee\	2r	[2g/	[2cc\	.
.	.	.	.	.	.	.	.	.	.	4B\	.	.	.	.	.	.	.	.	.	.	.	.	.
=102	=102	=102	=102	=102	=102	=102	=102	=102	=102	=102	=102	=102	=102	=102	=102	=102	=102	=102	=102	=102	=102	=102	=102
1D	2r	2r	2A\	1F	0r	0r	0r	1f	2e\]	4A/	0r	0r	1r	2r	2r	0r	0r	1r	2r	2.a/	4g/]	4cc\]	2ff\
.	.	.	.	.	.	.	.	.	.	4G/	.	.	.	.	.	.	.	.	.	.	4f/	4b\	.
.	2F\	2D\	2A\	.	.	.	.	.	2A/	2F/	.	.	.	2.A/	2d\	.	.	.	2dd\	.	2.a/	4a/	2ff\
.	.	.	.	.	.	.	.	.	.	.	.	.	.	.	.	.	.	.	.	4b\	.	4g/	.
1C	1G	2E\	1E	1C	.	.	.	1e	2e\	1r	.	.	2r	.	2g\	.	.	2r	2g/	4cc\	.	2.cc\	1r
.	.	.	.	.	.	.	.	.	.	.	.	.	.	4E/	.	.	.	.	.	4b\	8g/L	.	.
.	.	.	.	.	.	.	.	.	.	.	.	.	.	.	.	.	.	.	.	.	8f/J	.	.
.	.	2G\	.	.	.	.	.	.	2c\	.	.	.	2c\	[2e\	2e\	.	.	[2ee\	2g/	[2cc\	4g/	.	.
.	.	.	.	.	.	.	.	.	.	.	.	.	.	.	.	.	.	.	.	.	4e/	4b\	.
=103	=103	=103	=103	=103	=103	=103	=103	=103	=103	=103	=103	=103	=103	=103	=103	=103	=103	=103	=103	=103	=103	=103	=103
2.D\	1F	1D	2r	1r	2FF/	0r	1r	2A/	2c\	1A	0r	0r	1f	4e\]	1f	0r	2.A/	2ee\]	1dd	4cc\]	2a/	1a	1r
.	.	.	.	.	.	.	.	.	.	.	.	.	.	4c\	.	.	.	.	.	8b/L	.	.	.
.	.	.	.	.	.	.	.	.	.	.	.	.	.	.	.	.	.	.	.	8a/J	.	.	.
.	.	.	2A\	.	2FF/	.	.	2.f\	2F/	.	.	.	.	2d\	.	.	.	2a/	.	2dd\	2f/	.	.
4C/	.	.	.	.	.	.	.	.	.	.	.	.	.	.	.	.	4B\	.	.	.	.	.	.
1C	1G	2G\	2G\	2C/	1r	.	2r	.	2.c\	1E	.	.	2e\	1e	1c	.	4c\	2ee\	2g/	2r	2r	1r	2ee\
.	.	.	.	.	.	.	.	4c\	.	.	.	.	.	.	.	.	4A/	.	.	.	.	.	.
.	.	2E\	2G\	2C/	.	.	2c\	[2e\	.	.	.	.	2c\	.	.	.	[2e\	2ee\	2r	[2g/	[2cc\	.	2ee\
.	.	.	.	.	.	.	.	.	4B\	.	.	.	.	.	.	.	.	.	.	.	.	.	.
=104	=104	=104	=104	=104	=104	=104	=104	=104	=104	=104	=104	=104	=104	=104	=104	=104	=104	=104	=104	=104	=104	=104	=104
2r	2r	2A\	1F	0r	0r	0r	1f	2e\]	4A/	0r	1A	1r	2r	2r	0r	0r	4e\]	2r	2.a/	4g/]	4cc\]	2ff\	1r
.	.	.	.	.	.	.	.	.	4G/	.	.	.	.	.	.	.	8d\L	.	.	4f/	4b\	.	.
.	.	.	.	.	.	.	.	.	.	.	.	.	.	.	.	.	8c\J	.	.	.	.	.	.
2F\	2D\	2A\	.	.	.	.	.	2A/	2F/	.	.	.	2.A/	2d\	.	.	2.f\	2dd\	.	2.a/	4a/	2ff\	.
.	.	.	.	.	.	.	.	.	.	.	.	.	.	.	.	.	.	.	4b\	.	4g/	.	.
1G	2E\	1E	1C	.	.	.	1e	2e\	1r	.	1G	2r	.	2g\	.	.	.	2g/	4cc\	.	2.cc\	1r	2cc\
.	.	.	.	.	.	.	.	.	.	.	.	.	4E/	.	.	.	8e\L	.	4b\	8g/L	.	.	.
.	.	.	.	.	.	.	.	.	.	.	.	.	.	.	.	.	8d\J	.	.	8f/J	.	.	.
.	2G\	.	.	.	.	.	.	2c\	.	.	.	2c\	[2e\	2e\	.	.	2e\	2g/	[2cc\	4g/	.	.	2cc\
.	.	.	.	.	.	.	.	.	.	.	.	.	.	.	.	.	.	.	.	4e/	4b\	.	.
=105	=105	=105	=105	=105	=105	=105	=105	=105	=105	=105	=105	=105	=105	=105	=105	=105	=105	=105	=105	=105	=105	=105	=105
1F	1D	2r	1r	0r	1r	1r	2A/	2c\	1A	0r	0r	1f	4e\]	1f	0r	2.A/	1r	1dd	4cc\]	2a/	1a	1r	1r
.	.	.	.	.	.	.	.	.	.	.	.	.	4c\	.	.	.	.	.	8b/L	.	.	.	.
.	.	.	.	.	.	.	.	.	.	.	.	.	.	.	.	.	.	.	8a/J	.	.	.	.
.	.	2A\	.	.	.	.	2.f\	2F/	.	.	.	.	2d\	.	.	.	.	.	2dd\	2f/	.	.	.
.	.	.	.	.	.	.	.	.	.	.	.	.	.	.	.	4B\	.	.	.	.	.	.	.
1G	2G\	2G\	2C/	.	2r	2r	.	2.c\	1E	.	.	2e\	1e	1c	.	4c\	1e	2g/	2r	2r	1r	2ee\	1cc
.	.	.	.	.	.	.	4c\	.	.	.	.	.	.	.	.	4A/	.	.	.	.	.	.	.
.	2E\	2G\	2C/	.	[2C/	2c\	[2e\	.	.	.	.	2c\	.	.	.	[2e\	.	2r	[2g/	[2cc\	.	2ee\	.
.	.	.	.	.	.	.	.	4B\	.	.	.	.	.	.	.	.	.	.	.	.	.	.	.
=106	=106	=106	=106	=106	=106	=106	=106	=106	=106	=106	=106	=106	=106	=106	=106	=106	=106	=106	=106	=106	=106	=106	=106
2r	2A\	1F	0r	2FF/	2C/]	1f	2e\]	4A/	0r	1A	0r	2r	2r	0r	0r	4e\]	1A	2.a/	4g/]	4cc\]	2ff\	1r	2.cc\
.	.	.	.	.	.	.	.	4G/	.	.	.	.	.	.	.	8d\L	.	.	4f/	4b\	.	.	.
.	.	.	.	.	.	.	.	.	.	.	.	.	.	.	.	8c\J	.	.	.	.	.	.	.
2D\	2A\	.	.	2FF/	2FF/	.	2A/	2F/	.	.	.	2.A/	2d\	.	.	2.f\	.	.	2.a/	4a/	2ff\	.	.
.	.	.	.	.	.	.	.	.	.	.	.	.	.	.	.	.	.	4b\	.	4g/	.	.	4cc\
2E\	1E	1C	.	1r	2C/	1e	2e\	1r	.	1G	.	.	2g\	.	.	.	1r	4cc\	.	2.cc\	1r	2cc\	2cc\
.	.	.	.	.	.	.	.	.	.	.	.	4E/	.	.	.	8e\L	.	4b\	8g/L	.	.	.	.
.	.	.	.	.	.	.	.	.	.	.	.	.	.	.	.	8d\J	.	.	8f/J	.	.	.	.
2G\	.	.	.	.	2C/	.	2c\	.	.	.	.	[2e\	2e\	.	.	2e\	.	[2cc\	4g/	.	.	2cc\	2g/
.	.	.	.	.	.	.	.	.	.	.	.	.	.	.	.	.	.	.	4e/	4b\	.	.	.
=107	=107	=107	=107	=107	=107	=107	=107	=107	=107	=107	=107	=107	=107	=107	=107	=107	=107	=107	=107	=107	=107	=107	=107
1D	2r	1r	0r	1r	0r	2A/	2c\	1A	0r	0r	0r	4e\]	1f	0r	2.A/	1r	0r	4cc\]	2a/	1a	1r	1r	2a/
.	.	.	.	.	.	.	.	.	.	.	.	4c\	.	.	.	.	.	8b/L	.	.	.	.	.
.	.	.	.	.	.	.	.	.	.	.	.	.	.	.	.	.	.	8a/J	.	.	.	.	.
.	2A\	.	.	.	.	2.f\	2F/	.	.	.	.	2d\	.	.	.	.	.	2dd\	2f/	.	.	.	2a/
.	.	.	.	.	.	.	.	.	.	.	.	.	.	.	4B\	.	.	.	.	.	.	.	.
2G\	2G\	2C/	.	2r	.	.	2.c\	1E	.	.	.	1e	1c	.	4c\	1e	.	2r	2r	1r	2ee\	1cc	2ee\
.	.	.	.	.	.	4c\	.	.	.	.	.	.	.	.	4A/	.	.	.	.	.	.	.	.
2E\	2G\	2C/	.	[2C/	.	[2e\	.	.	.	.	.	.	.	.	[2e\	.	.	[2g/	[2cc\	.	2ee\	.	2ee\
.	.	.	.	.	.	.	4B\	.	.	.	.	.	.	.	.	.	.	.	.	.	.	.	.
=108	=108	=108	=108	=108	=108	=108	=108	=108	=108	=108	=108	=108	=108	=108	=108	=108	=108	=108	=108	=108	=108	=108	=108
2A\	1F	0r	2FF/	2C/]	1r	2e\]	4A/	0r	1A	0r	1r	2r	0r	0r	4e\]	1A	0r	4g/]	4cc\]	2ff\	1r	2.cc\	1cc
.	.	.	.	.	.	.	4G/	.	.	.	.	.	.	.	8d\L	.	.	4f/	4b\	.	.	.	.
.	.	.	.	.	.	.	.	.	.	.	.	.	.	.	8c\J	.	.	.	.	.	.	.	.
2A\	.	.	2FF/	2FF/	.	2A/	2F/	.	.	.	.	2d\	.	.	2.f\	.	.	2.a/	4a/	2ff\	.	.	.
.	.	.	.	.	.	.	.	.	.	.	.	.	.	.	.	.	.	.	4g/	.	.	4cc\	.
1E	1C	.	1r	2C/	1C	2e\	1r	.	1G	.	1c	2g\	.	.	.	1r	.	.	2.cc\	1r	2cc\	2cc\	1r
.	.	.	.	.	.	.	.	.	.	.	.	.	.	.	8e\L	.	.	8g/L	.	.	.	.	.
.	.	.	.	.	.	.	.	.	.	.	.	.	.	.	8d\J	.	.	8f/J	.	.	.	.	.
.	.	.	.	2C/	.	2c\	.	.	.	.	.	2e\	.	.	2e\	.	.	4g/	.	.	2cc\	2g/	.
.	.	.	.	.	.	.	.	.	.	.	.	.	.	.	.	.	.	4e/	4b\	.	.	.	.
=109	=109	=109	=109	=109	=109	=109	=109	=109	=109	=109	=109	=109	=109	=109	=109	=109	=109	=109	=109	=109	=109	=109	=109
2r	1r	0r	1r	0r	1FF	2c\	1A	0r	0r	0r	1.c	1f	0r	2.A/	1r	0r	1f	2a/	1a	1r	1r	2a/	0r
2A\	.	.	.	.	.	2F/	.	.	.	.	.	.	.	.	.	.	.	2f/	.	.	.	2a/	.
.	.	.	.	.	.	.	.	.	.	.	.	.	.	4B\	.	.	.	.	.	.	.	.	.
2G\	2C/	.	2r	.	1r	2.c\	1E	.	.	.	.	1c	.	4c\	1e	.	2e\	2r	1r	2ee\	1cc	2ee\	.
.	.	.	.	.	.	.	.	.	.	.	.	.	.	4A/	.	.	.	.	.	.	.	.	.
2G\	2C/	.	[2C/	.	.	.	.	.	.	.	2A/	.	.	[2e\	.	.	2c\	[2cc\	.	2ee\	.	2ee\	.
.	.	.	.	.	.	4B\	.	.	.	.	.	.	.	.	.	.	.	.	.	.	.	.	.
=110	=110	=110	=110	=110	=110	=110	=110	=110	=110	=110	=110	=110	=110	=110	=110	=110	=110	=110	=110	=110	=110	=110	=110
1F	0r	2FF/	2C/]	1r	1F	4A/	0r	1A	0r	1r	2.A/	0r	0r	4e\]	1A	0r	2.c\	4cc\]	2ff\	1r	2.cc\	1cc	1r
.	.	.	.	.	.	4G/	.	.	.	.	.	.	.	8d\L	.	.	.	4b\	.	.	.	.	.
.	.	.	.	.	.	.	.	.	.	.	.	.	.	8c\J	.	.	.	.	.	.	.	.	.
.	.	2FF/	2FF/	.	.	2F/	.	.	.	.	.	.	.	2.f\	.	.	.	4a/	2ff\	.	.	.	.
.	.	.	.	.	.	.	.	.	.	.	4F/	.	.	.	.	.	4d\	4g/	.	.	4cc\	.	.
1C	.	1r	2C/	1C	2.E\	1r	.	1G	.	1c	2G/	.	.	.	1r	.	2e\	2.cc\	1r	2cc\	2cc\	1r	2r
.	.	.	.	.	.	.	.	.	.	.	.	.	.	8e\L	.	.	.	.	.	.	.	.	.
.	.	.	.	.	.	.	.	.	.	.	.	.	.	8d\J	.	.	.	.	.	.	.	.	.
.	.	.	2C/	.	.	.	.	.	.	.	2C/	.	.	2e\	.	.	2e\	.	.	2cc\	2g/	.	2cc\
.	.	.	.	.	4D\	.	.	.	.	.	.	.	.	.	.	.	.	4b\	.	.	.	.	.
=111	=111	=111	=111	=111	=111	=111	=111	=111	=111	=111	=111	=111	=111	=111	=111	=111	=111	=111	=111	=111	=111	=111	=111
1r	0r	1r	0r	1FF	2.C/	1A	0r	0r	0r	1.c	1C	0r	2.A/	1r	0r	1f	2A/	1a	1r	1r	2a/	0r	2.cc\
.	.	.	.	.	.	.	.	.	.	.	.	.	.	.	.	.	2.c\	.	.	.	2a/	.	.
.	.	.	.	.	4C/	.	.	.	.	.	.	.	4B\	.	.	.	.	.	.	.	.	.	4cc\
2C/	.	2r	.	1r	2C/	1E	.	.	.	.	1r	.	4c\	1e	.	2e\	.	1r	2ee\	1cc	2ee\	.	2cc\
.	.	.	.	.	.	.	.	.	.	.	.	.	4A/	.	.	.	4d\	.	.	.	.	.	.
2C/	.	[2C/	.	.	2C/	.	.	.	.	2A/	.	.	[2e\	.	.	2c\	2e\	.	2ee\	.	2ee\	.	2cc\
=112	=112	=112	=112	=112	=112	=112	=112	=112	=112	=112	=112	=112	=112	=112	=112	=112	=112	=112	=112	=112	=112	=112	=112
0r	2FF/	2C/]	1r	1F	1FF	0r	1A	0r	1r	2.A/	2F/	0r	4e\]	1A	0r	2.c\	2r	2ff\	1r	2.cc\	1cc	1r	2a/
.	.	.	.	.	.	.	.	.	.	.	.	.	8d\L	.	.	.	.	.	.	.	.	.	.
.	.	.	.	.	.	.	.	.	.	.	.	.	8c\J	.	.	.	.	.	.	.	.	.	.
.	2FF/	2FF/	.	.	.	.	.	.	.	.	2F/	.	2.f\	.	.	.	2c\	2ff\	.	.	.	.	1cc
.	.	.	.	.	.	.	.	.	.	4F/	.	.	.	.	.	4d\	.	.	.	4cc\	.	.	.
.	1r	2C/	1C	2.E\	1r	.	1G	.	1c	2G/	1r	.	.	1r	.	2e\	2g\	1r	2cc\	2cc\	1r	2r	.
.	.	.	.	.	.	.	.	.	.	.	.	.	8e\L	.	.	.	.	.	.	.	.	.	.
.	.	.	.	.	.	.	.	.	.	.	.	.	8d\J	.	.	.	.	.	.	.	.	.	.
.	.	2C/	.	.	.	.	.	.	.	2C/	.	.	2e\	.	.	2e\	2g\	.	2cc\	2g/	.	2cc\	2ee\
.	.	.	.	4D\	.	.	.	.	.	.	.	.	.	.	.	.	.	.	.	.	.	.	.
=113	=113	=113	=113	=113	=113	=113	=113	=113	=113	=113	=113	=113	=113	=113	=113	=113	=113	=113	=113	=113	=113	=113	=113
0r	1r	0r	1FF	2.C/	2.FF/	0r	0r	0r	1.c	1C	1c	2.A/	1r	0r	1f	2A/	2c\	1r	1r	2a/	0r	2.cc\	2ff\
.	.	.	.	.	.	.	.	.	.	.	.	.	.	.	.	2.c\	1f	.	.	2a/	.	.	2cc\
.	.	.	.	4C/	4GG/	.	.	.	.	.	.	4B\	.	.	.	.	.	.	.	.	.	4cc\	.
.	2r	.	1r	2C/	4AA/	.	.	.	.	1r	2c\	4c\	1e	.	2e\	.	.	2ee\	1cc	2ee\	.	2cc\	2r
.	.	.	.	.	4BB/	.	.	.	.	.	.	4A/	.	.	.	4d\	.	.	.	.	.	.	.
.	[2C/	.	.	2C/	[2C/	.	.	.	2A/	.	2c\	[2e\	.	.	2c\	2e\	2e\	2ee\	.	2ee\	.	2cc\	[2cc\
=114	=114	=114	=114	=114	=114	=114	=114	=114	=114	=114	=114	=114	=114	=114	=114	=114	=114	=114	=114	=114	=114	=114	=114
2FF/	2C/]	1r	1F	1FF	4C/]	1A	0r	1r	2.A/	2F/	2c\	4e\]	1A	0r	2.c\	2r	1f	1r	2.cc\	1cc	1r	2a/	4cc\]
.	.	.	.	.	4FF/	.	.	.	.	.	.	8d\L	.	.	.	.	.	.	.	.	.	.	4b\
.	.	.	.	.	.	.	.	.	.	.	.	8c\J	.	.	.	.	.	.	.	.	.	.	.
2FF/	2FF/	.	.	.	2F\	.	.	.	.	2F/	2c\	2.f\	.	.	.	2c\	.	.	.	.	.	1cc	2.a/
.	.	.	.	.	.	.	.	.	4F/	.	.	.	.	.	4d\	.	.	.	4cc\	.	.	.	.
1r	2C/	1C	2.E\	1r	2r	1G	.	1c	2G/	1r	2G/	.	1r	.	2e\	2g\	1r	2cc\	2cc\	1r	2r	.	.
.	.	.	.	.	.	.	.	.	.	.	.	8e\L	.	.	.	.	.	.	.	.	.	.	4g/
.	.	.	.	.	.	.	.	.	.	.	.	8d\J	.	.	.	.	.	.	.	.	.	.	.
.	2C/	.	.	.	2C/	.	.	.	2C/	.	[2c\	2e\	.	.	2e\	2g\	.	2cc\	2g/	.	2cc\	2ee\	[2g/
.	.	.	4D\	.	.	.	.	.	.	.	.	.	.	.	.	.	.	.	.	.	.	.	.
=115	=115	=115	=115	=115	=115	=115	=115	=115	=115	=115	=115	=115	=115	=115	=115	=115	=115	=115	=115	=115	=115	=115	=115
1r	0r	1FF	2.C/	2.FF/	2F\	0r	0r	1.c	1C	1c	4c\]	1r	0r	1f	2A/	2c\	1c	1r	2a/	0r	2.cc\	2ff\	4g/]
.	.	.	.	.	.	.	.	.	.	.	4B\	.	.	.	.	.	.	.	.	.	.	.	4f/
.	.	.	.	.	2F\	.	.	.	.	.	2.A/	.	.	.	2.c\	1f	.	.	2a/	.	.	2cc\	1a
.	.	.	4C/	4GG/	.	.	.	.	.	.	.	.	.	.	.	.	.	.	.	.	4cc\	.	.
2r	.	1r	2C/	4AA/	2C/	.	.	.	1r	2c\	.	1e	.	2e\	.	.	1c	1cc	2ee\	.	2cc\	2r	.
.	.	.	.	4BB/	.	.	.	.	.	.	4G/	.	.	.	4d\	.	.	.	.	.	.	.	.
[2C/	.	.	2C/	[2C/	2C/	.	.	2A/	.	2c\	[2c\	.	.	2c\	2e\	2e\	.	.	2ee\	.	2cc\	[2cc\	2e/
=116	=116	=116	=116	=116	=116	=116	=116	=116	=116	=116	=116	=116	=116	=116	=116	=116	=116	=116	=116	=116	=116	=116	=116
2C/]	1r	1F	1FF	4C/]	2F\	0r	1r	2.A/	2F/	2c\	2c\]	1A	0r	2.c\	2r	1f	2c\	2.cc\	1cc	1r	2a/	4cc\]	1a
.	.	.	.	4FF/	.	.	.	.	.	.	.	.	.	.	.	.	.	.	.	.	.	4b\	.
2FF/	.	.	.	2F\	2C/	.	.	.	2F/	2c\	2C/	.	.	.	2c\	.	1c	.	.	.	1cc	2.a/	.
.	.	.	.	.	.	.	.	4F/	.	.	.	.	.	4d\	.	.	.	4cc\	.	.	.	.	.
2C/	1C	2.E\	1r	2r	2C/	.	1c	2G/	1r	2G/	1G	1r	.	2e\	2g\	1r	.	2cc\	1r	2r	.	.	1r
.	.	.	.	.	.	.	.	.	.	.	.	.	.	.	.	.	.	.	.	.	.	4g/	.
2C/	.	.	.	2C/	2C/	.	.	2C/	.	[2c\	.	.	.	2e\	2g\	.	4B\	2g/	.	2cc\	2ee\	[2g/	.
.	.	4D\	.	.	.	.	.	.	.	.	.	.	.	.	.	.	4A/	.	.	.	.	.	.
=117	=117	=117	=117	=117	=117	=117	=117	=117	=117	=117	=117	=117	=117	=117	=117	=117	=117	=117	=117	=117	=117	=117	=117
0r	1FF	2.C/	2.FF/	2F\	2.AA/	0r	1.c	1C	1c	4c\]	1F	0r	1f	2A/	2c\	1c	2.c\	2a/	0r	2.cc\	2ff\	4g/]	2r
.	.	.	.	.	.	.	.	.	.	4B\	.	.	.	.	.	.	.	.	.	.	.	4f/	.
.	.	.	.	2F\	.	.	.	.	.	2.A/	.	.	.	2.c\	1f	.	.	2a/	.	.	2cc\	1a	1a
.	.	4C/	4GG/	.	4FF/	.	.	.	.	.	.	.	.	.	.	.	4A/	.	.	4cc\	.	.	.
.	1r	2C/	4AA/	2C/	1C	.	.	1r	2c\	.	1r	.	2e\	.	.	1c	1e	2ee\	.	2cc\	2r	.	.
.	.	.	4BB/	.	.	.	.	.	.	4G/	.	.	.	4d\	.	.	.	.	.	.	.	.	.
.	.	2C/	[2C/	2C/	.	.	2A/	.	2c\	[2c\	.	.	2c\	2e\	2e\	.	.	2ee\	.	2cc\	[2cc\	2e/	[2g/
=118	=118	=118	=118	=118	=118	=118	=118	=118	=118	=118	=118	=118	=118	=118	=118	=118	=118	=118	=118	=118	=118	=118	=118
1r	1F	1FF	4C/]	2F\	0r	1r	2.A/	2F/	2c\	2c\]	1F	0r	2.c\	2r	1f	2c\	0r	1cc	1r	2a/	4cc\]	1a	2g/]
.	.	.	4FF/	.	.	.	.	.	.	.	.	.	.	.	.	.	.	.	.	.	4b\	.	.
.	.	.	2F\	2C/	.	.	.	2F/	2c\	2C/	.	.	.	2c\	.	1c	.	.	.	1cc	2.a/	.	1f
.	.	.	.	.	.	.	4F/	.	.	.	.	.	4d\	.	.	.	.	.	.	.	.	.	.
1C	2.E\	1r	2r	2C/	.	1c	2G/	1r	2G/	1G	2G/	.	2e\	2g\	1r	.	.	1r	2r	.	.	1r	.
.	.	.	.	.	.	.	.	.	.	.	.	.	.	.	.	.	.	.	.	.	4g/	.	.
.	.	.	2C/	2C/	.	.	2C/	.	[2c\	.	2E/	.	2e\	2g\	.	4B\	.	.	2cc\	2ee\	[2g/	.	[2e/
.	4D\	.	.	.	.	.	.	.	.	.	.	.	.	.	.	4A/	.	.	.	.	.	.	.
=119	=119	=119	=119	=119	=119	=119	=119	=119	=119	=119	=119	=119	=119	=119	=119	=119	=119	=119	=119	=119	=119	=119	=119
1FF	2.C/	2.FF/	2F\	2.AA/	1r	1.c	1C	1c	4c\]	1F	1A	1f	2A/	2c\	1c	2.c\	2r	0r	2.cc\	2ff\	4g/]	2r	4e/]
.	.	.	.	.	.	.	.	.	4B\	.	.	.	.	.	.	.	.	.	.	.	4f/	.	4d/
.	.	.	2F\	.	.	.	.	.	2.A/	.	.	.	2.c\	1f	.	.	2c\	.	.	2cc\	1a	1a	2f/
.	4C/	4GG/	.	4FF/	.	.	.	.	.	.	.	.	.	.	.	4A/	.	.	4cc\	.	.	.	.
1r	2C/	4AA/	2C/	1C	2r	.	1r	2c\	.	1r	1E	2e\	.	.	1c	1e	1g	.	2cc\	2r	.	.	2r
.	.	4BB/	.	.	.	.	.	.	4G/	.	.	.	4d\	.	.	.	.	.	.	.	.	.	.
.	2C/	[2C/	2C/	.	[2C/	2A/	.	2c\	[2c\	.	.	2c\	2e\	2e\	.	.	.	.	2cc\	[2cc\	2e/	[2g/	2c/
=120	=120	=120	=120	=120	=120	=120	=120	=120	=120	=120	=120	=120	=120	=120	=120	=120	=120	=120	=120	=120	=120	=120	=120
1F	1FF	4C/]	2F\	0r	2C/]	2.A/	2F/	2c\	2c\]	1F	0r	2.c\	2r	1f	2c\	0r	1f	1r	2a/	4cc\]	1a	2g/]	2.cc\
.	.	4FF/	.	.	.	.	.	.	.	.	.	.	.	.	.	.	.	.	.	4b\	.	.	.
.	.	2F\	2C/	.	2C/	.	2F/	2c\	2C/	.	.	.	2c\	.	1c	.	.	.	1cc	2.a/	.	1f	.
.	.	.	.	.	.	4F/	.	.	.	.	.	4d\	.	.	.	.	.	.	.	.	.	.	4cc\
2.E\	1r	2r	2C/	.	2.C/	2G/	1r	2G/	1G	2G/	.	2e\	2g\	1r	.	.	1c	2r	.	.	1r	.	2cc\
.	.	.	.	.	.	.	.	.	.	.	.	.	.	.	.	.	.	.	.	4g/	.	.	.
.	.	2C/	2C/	.	.	2C/	.	[2c\	.	2E/	.	2e\	2g\	.	4B\	.	.	2cc\	2ee\	[2g/	.	[2e/	[2cc\
4D\	.	.	.	.	4FF/	.	.	.	.	.	.	.	.	.	4A/	.	.	.	.	.	.	.	.
=121	=121	=121	=121	=121	=121	=121	=121	=121	=121	=121	=121	=121	=121	=121	=121	=121	=121	=121	=121	=121	=121	=121	=121
2.C/	2.FF/	2F\	2.AA/	1r	1FF	1C	1c	4c\]	1F	1A	2.F/	2A/	2c\	1c	2.c\	2r	1r	2.cc\	2ff\	4g/]	2r	4e/]	2cc\]
.	.	.	.	.	.	.	.	4B\	.	.	.	.	.	.	.	.	.	.	.	4f/	.	4d/	.
.	.	2F\	.	.	.	.	.	2.A/	.	.	.	2.c\	1f	.	.	2c\	.	.	2cc\	1a	1a	2f/	2cc\
4C/	4GG/	.	4FF/	.	.	.	.	.	.	.	4C/	.	.	.	4A/	.	.	4cc\	.	.	.	.	.
2C/	4AA/	2C/	1C	2r	1r	1r	2c\	.	1r	1E	2c\	.	.	1c	1e	1g	2.c\	2cc\	2r	.	.	2r	1r
.	4BB/	.	.	.	.	.	.	4G/	.	.	.	4d\	.	.	.	.	.	.	.	.	.	.	.
2C/	[2C/	2C/	.	[2C/	.	.	2c\	[2c\	.	.	2c\	2e\	2e\	.	.	.	.	2cc\	[2cc\	2e/	[2g/	2c/	.
.	.	.	.	.	.	.	.	.	.	.	.	.	.	.	.	.	4c\	.	.	.	.	.	.
=122	=122	=122	=122	=122	=122	=122	=122	=122	=122	=122	=122	=122	=122	=122	=122	=122	=122	=122	=122	=122	=122	=122	=122
1FF	4C/]	2F\	0r	2C/]	2F\	2F/	2c\	2c\]	1F	0r	1c	2r	1f	2c\	0r	1f	2c\	2a/	4cc\]	1a	2g/]	2.cc\	0r
.	4FF/	.	.	.	.	.	.	.	.	.	.	.	.	.	.	.	.	.	4b\	.	.	.	.
.	2F\	2C/	.	2C/	2F\	2F/	2c\	2C/	.	.	.	2c\	.	1c	.	.	2c\	1cc	2.a/	.	1f	.	.
.	.	.	.	.	.	.	.	.	.	.	.	.	.	.	.	.	.	.	.	.	.	4cc\	.
1r	2r	2C/	.	2.C/	2G\	1r	2G/	1G	2G/	.	1c	2g\	1r	.	.	1c	1c	.	.	1r	.	2cc\	.
.	.	.	.	.	.	.	.	.	.	.	.	.	.	.	.	.	.	.	4g/	.	.	.	.
.	2C/	2C/	.	.	2C/	.	[2c\	.	2E/	.	.	2g\	.	4B\	.	.	.	2ee\	[2g/	.	[2e/	[2cc\	.
.	.	.	.	4FF/	.	.	.	.	.	.	.	.	.	4A/	.	.	.	.	.	.	.	.	.
=123	=123	=123	=123	=123	=123	=123	=123	=123	=123	=123	=123	=123	=123	=123	=123	=123	=123	=123	=123	=123	=123	=123	=123
2.FF/	2F\	2.AA/	1r	1FF	0C	1c	4c\]	1F	1A	2.F/	0r	2c\	1c	2.c\	2r	1r	1c	2ff\	4g/]	2r	4e/]	2cc\]	2r
.	.	.	.	.	.	.	4B\	.	.	.	.	.	.	.	.	.	.	.	4f/	.	4d/	.	.
.	2F\	.	.	.	.	.	2.A/	.	.	.	.	1f	.	.	2c\	.	.	2cc\	1a	1a	2f/	2cc\	2cc\
4GG/	.	4FF/	.	.	.	.	.	.	.	4C/	.	.	.	4A/	.	.	.	.	.	.	.	.	.
4AA/	2C/	1C	2r	1r	.	2c\	.	1r	1E	2c\	.	.	1c	1e	1g	2.c\	1r	2r	.	.	2r	1r	4cc\
4BB/	.	.	.	.	.	.	4G/	.	.	.	.	.	.	.	.	.	.	.	.	.	.	.	4dd\
[2C/	2C/	.	[2C/	.	.	2c\	[2c\	.	.	2c\	.	2e\	.	.	.	.	.	[2cc\	2e/	[2g/	2c/	.	2ee\
.	.	.	.	.	.	.	.	.	.	.	.	.	.	.	.	4c\	.	.	.	.	.	.	.
=124	=124	=124	=124	=124	=124	=124	=124	=124	=124	=124	=124	=124	=124	=124	=124	=124	=124	=124	=124	=124	=124	=124	=124
4C/]	2F\	0r	2C/]	2F\	1FF	2c\	2c\]	1F	0r	1c	1C	1f	2c\	0r	1f	2c\	0r	4cc\]	1a	2g/]	2.cc\	0r	1a
4FF/	.	.	.	.	.	.	.	.	.	.	.	.	.	.	.	.	.	4b\	.	.	.	.	.
2F\	2C/	.	2C/	2F\	.	2c\	2C/	.	.	.	.	.	1c	.	.	2c\	.	2.a/	.	1f	.	.	.
.	.	.	.	.	.	.	.	.	.	.	.	.	.	.	.	.	.	.	.	.	4cc\	.	.
2r	2C/	.	2.C/	2G\	1r	2G/	1G	2G/	.	1c	1E	1r	.	.	1c	1c	.	.	1r	.	2cc\	.	2r
.	.	.	.	.	.	.	.	.	.	.	.	.	.	.	.	.	.	4g/	.	.	.	.	.
2C/	2C/	.	.	2C/	.	[2c\	.	2E/	.	.	.	.	4B\	.	.	.	.	[2g/	.	[2e/	[2cc\	.	[2cc\
.	.	.	4FF/	.	.	.	.	.	.	.	.	.	4A/	.	.	.	.	.	.	.	.	.	.
=125	=125	=125	=125	=125	=125	=125	=125	=125	=125	=125	=125	=125	=125	=125	=125	=125	=125	=125	=125	=125	=125	=125	=125
2F\	2.AA/	1r	1FF	0C	1F	4c\]	1F	1A	2.F/	0r	2C/	1c	2.c\	2r	1r	1c	2r	4g/]	2r	4e/]	2cc\]	2r	2cc\]
.	.	.	.	.	.	4B\	.	.	.	.	.	.	.	.	.	.	.	4f/	.	4d/	.	.	.
2F\	.	.	.	.	.	2.A/	.	.	.	.	2C/	.	.	2c\	.	.	2f\	1a	1a	2f/	2cc\	2cc\	2cc\
.	4FF/	.	.	.	.	.	.	.	4C/	.	.	.	4A/	.	.	.	.	.	.	.	.	.	.
2C/	1C	2r	1r	.	1G	.	1r	1E	2c\	.	2C/	1c	1e	1g	2.c\	1r	2f\	.	.	2r	1r	4cc\	1cc
.	.	.	.	.	.	4G/	.	.	.	.	.	.	.	.	.	.	.	.	.	.	.	4dd\	.
2C/	.	[2C/	.	.	.	[2c\	.	.	2c\	.	2C/	.	.	.	.	.	2e\	2e/	[2g/	2c/	.	2ee\	.
.	.	.	.	.	.	.	.	.	.	.	.	.	.	.	4c\	.	.	.	.	.	.	.	.
=126	=126	=126	=126	=126	=126	=126	=126	=126	=126	=126	=126	=126	=126	=126	=126	=126	=126	=126	=126	=126	=126	=126	=126
2F\	0r	2C/]	2F\	1FF	2A\	2c\]	1F	0r	1c	1C	2C/	2c\	0r	1f	2c\	0r	2.f\	1a	2g/]	2.cc\	0r	1a	1.cc
2C/	.	2C/	2F\	.	2F\	2C/	.	.	.	.	2.c\	1c	.	.	2c\	.	.	.	1f	.	.	.	.
.	.	.	.	.	.	.	.	.	.	.	.	.	.	.	.	.	4d\	.	.	4cc\	.	.	.
2C/	.	2.C/	2G\	1r	1r	1G	2G/	.	1c	1E	.	.	.	1c	1c	.	4e\	1r	.	2cc\	.	2r	.
.	.	.	.	.	.	.	.	.	.	.	4B\	.	.	.	.	.	4f\	.	.	.	.	.	.
2C/	.	.	2C/	.	.	.	2E/	.	.	.	4A/	4B\	.	.	.	.	2g\	.	[2e/	[2cc\	.	[2cc\	2g/
.	.	4FF/	.	.	.	.	.	.	.	.	4G/	4A/	.	.	.	.	.	.	.	.	.	.	.
=127	=127	=127	=127	=127	=127	=127	=127	=127	=127	=127	=127	=127	=127	=127	=127	=127	=127	=127	=127	=127	=127	=127	=127
2.AA/	1r	1FF	0C	1F	0r	1F	1A	2.F/	0r	2C/	1A	2.c\	2r	1r	1c	2r	1r	2r	4e/]	2cc\]	2r	2cc\]	0r
.	.	.	.	.	.	.	.	.	.	.	.	.	.	.	.	.	.	.	4d/	.	.	.	.
.	.	.	.	.	.	.	.	.	.	2C/	.	.	2c\	.	.	2f\	.	1a	2f/	2cc\	2cc\	2cc\	.
4FF/	.	.	.	.	.	.	.	4C/	.	.	.	4A/	.	.	.	.	.	.	.	.	.	.	.
1C	2r	1r	.	1G	.	1r	1E	2c\	.	2C/	1r	1e	1g	2.c\	1r	2f\	2c\	.	2r	1r	4cc\	1cc	.
.	.	.	.	.	.	.	.	.	.	.	.	.	.	.	.	.	.	.	.	.	4dd\	.	.
.	[2C/	.	.	.	.	.	.	2c\	.	2C/	.	.	.	.	.	2e\	2G/	[2g/	2c/	.	2ee\	.	.
.	.	.	.	.	.	.	.	.	.	.	.	.	.	4c\	.	.	.	.	.	.	.	.	.
=128	=128	=128	=128	=128	=128	=128	=128	=128	=128	=128	=128	=128	=128	=128	=128	=128	=128	=128	=128	=128	=128	=128	=128
0r	2C/]	2F\	1FF	2A\	1r	1F	0r	1c	1C	2C/	0r	0r	1f	2c\	0r	2.f\	2.c\	2g/]	2.cc\	0r	1a	1.cc	0r
.	2C/	2F\	.	2F\	.	.	.	.	.	2.c\	.	.	.	2c\	.	.	.	1f	.	.	.	.	.
.	.	.	.	.	.	.	.	.	.	.	.	.	.	.	.	4d\	8B/L	.	4cc\	.	.	.	.
.	.	.	.	.	.	.	.	.	.	.	.	.	.	.	.	.	8A/J	.	.	.	.	.	.
.	2.C/	2G\	1r	1r	2r	2G/	.	1c	1E	.	.	.	1c	1c	.	4e\	4c\	.	2cc\	.	2r	.	.
.	.	.	.	.	.	.	.	.	.	4B\	.	.	.	.	.	4f\	4d\	.	.	.	.	.	.
.	.	2C/	.	.	2C/	2E/	.	.	.	4A/	.	.	.	.	.	2g\	[2e\	[2e/	[2cc\	.	[2cc\	2g/	.
.	4FF/	.	.	.	.	.	.	.	.	4G/	.	.	.	.	.	.	.	.	.	.	.	.	.
=129	=129	=129	=129	=129	=129	=129	=129	=129	=129	=129	=129	=129	=129	=129	=129	=129	=129	=129	=129	=129	=129	=129	=129
1r	1FF	0C	1F	0r	2F\	1A	2.F/	0r	2C/	1A	0r	2r	1r	1c	2r	1r	4e\]	4e/]	2cc\]	2r	2cc\]	0r	0r
.	.	.	.	.	.	.	.	.	.	.	.	.	.	.	.	.	4B\	4d/	.	.	.	.	.
.	.	.	.	.	2F\	.	.	.	2C/	.	.	2c\	.	.	2f\	.	4c\	2f/	2cc\	2cc\	2cc\	.	.
.	.	.	.	.	.	.	4C/	.	.	.	.	.	.	.	.	.	4d\	.	.	.	.	.	.
2r	1r	.	1G	.	2E\	1E	2c\	.	2C/	1r	.	1g	2.c\	1r	2f\	2c\	2G/	2r	1r	4cc\	1cc	.	.
.	.	.	.	.	.	.	.	.	.	.	.	.	.	.	.	.	.	.	.	4dd\	.	.	.
[2C/	.	.	.	.	2C/	.	2c\	.	2C/	.	.	.	.	.	2e\	2G/	4A/	2c/	.	2ee\	.	.	.
.	.	.	.	.	.	.	.	.	.	.	.	.	4c\	.	.	.	4B\	.	.	.	.	.	.
=130	=130	=130	=130	=130	=130	=130	=130	=130	=130	=130	=130	=130	=130	=130	=130	=130	=130	=130	=130	=130	=130	=130	=130
2C/]	2F\	1FF	2A\	1r	0r	0r	1c	1C	2C/	0r	0r	1f	2c\	0r	2.f\	2.c\	4c\	2.cc\	0r	1a	1.cc	0r	0r
.	.	.	.	.	.	.	.	.	.	.	.	.	.	.	.	.	4d\	.	.	.	.	.	.
2C/	2F\	.	2F\	.	.	.	.	.	2.c\	.	.	.	2c\	.	.	.	2.c\	.	.	.	.	.	.
.	.	.	.	.	.	.	.	.	.	.	.	.	.	.	4d\	8B/L	.	4cc\	.	.	.	.	.
.	.	.	.	.	.	.	.	.	.	.	.	.	.	.	.	8A/J	.	.	.	.	.	.	.
2.C/	2G\	1r	1r	2r	.	.	1c	1E	.	.	.	1c	1c	.	4e\	4c\	.	2cc\	.	2r	.	.	.
.	.	.	.	.	.	.	.	.	4B\	.	.	.	.	.	4f\	4d\	4A/	.	.	.	.	.	.
.	2C/	.	.	2C/	.	.	.	.	4A/	.	.	.	.	.	2g\	[2e\	2e\	[2cc\	.	[2cc\	2g/	.	.
4FF/	.	.	.	.	.	.	.	.	4G/	.	.	.	.	.	.	.	.	.	.	.	.	.	.
=131	=131	=131	=131	=131	=131	=131	=131	=131	=131	=131	=131	=131	=131	=131	=131	=131	=131	=131	=131	=131	=131	=131	=131
1FF	0C	1F	0r	2F\	2r	2.F/	0r	2C/	1A	0r	2r	1r	1c	2r	1r	4e\]	2r	2cc\]	2r	2cc\]	0r	0r	0r
.	.	.	.	.	.	.	.	.	.	.	.	.	.	.	.	4B\	.	.	.	.	.	.	.
.	.	.	.	2F\	2F\	.	.	2C/	.	.	2A/	.	.	2f\	.	4c\	2A/	2cc\	2cc\	2cc\	.	.	.
.	.	.	.	.	.	4C/	.	.	.	.	.	.	.	.	.	4d\	.	.	.	.	.	.	.
1r	.	1G	.	2E\	2C/	2c\	.	2C/	1r	.	2G/	2.c\	1r	2f\	2c\	2G/	2c\	1r	4cc\	1cc	.	.	.
.	.	.	.	.	.	.	.	.	.	.	.	.	.	.	.	.	.	.	4dd\	.	.	.	.
.	.	.	.	2C/	2G\	2c\	.	2C/	.	.	2E/	.	.	2e\	2G/	4A/	2c\	.	2ee\	.	.	.	.
.	.	.	.	.	.	.	.	.	.	.	.	4c\	.	.	.	4B\	.	.	.	.	.	.	.
=132	=132	=132	=132	=132	=132	=132	=132	=132	=132	=132	=132	=132	=132	=132	=132	=132	=132	=132	=132	=132	=132	=132	=132
2F\	1FF	2A\	1r	0r	4F\	1c	1C	2C/	0r	0r	2.A/	2c\	0r	2.f\	2.c\	4c\	2.c\	0r	1a	1.cc	0r	0r	2r
.	.	.	.	.	4E\	.	.	.	.	.	.	.	.	.	.	4d\	.	.	.	.	.	.	.
2F\	.	2F\	.	.	4D\	.	.	2.c\	.	.	.	2c\	.	.	.	2.c\	.	.	.	.	.	.	2a/
.	.	.	.	.	4C/	.	.	.	.	.	4B\	.	.	4d\	8B/L	.	4A/	.	.	.	.	.	.
.	.	.	.	.	.	.	.	.	.	.	.	.	.	.	8A/J	.	.	.	.	.	.	.	.
2G\	1r	1r	2r	.	2.C/	1c	1E	.	.	.	[1c	1c	.	4e\	4c\	.	1e	.	2r	.	.	.	2g/
.	.	.	.	.	.	.	.	4B\	.	.	.	.	.	4f\	4d\	4A/	.	.	.	.	.	.	.
2C/	.	.	2C/	.	.	.	.	4A/	.	.	.	.	.	2g\	[2e\	2e\	.	.	[2cc\	2g/	.	.	2e/
.	.	.	.	.	4BB/	.	.	4G/	.	.	.	.	.	.	.	.	.	.	.	.	.	.	.
=133	=133	=133	=133	=133	=133	=133	=133	=133	=133	=133	=133	=133	=133	=133	=133	=133	=133	=133	=133	=133	=133	=133	=133
0C	1F	0r	2F\	2r	4AA/	0r	2C/	1A	0r	2r	1c]	1c	2r	1r	4e\]	2r	1A	2r	2cc\]	0r	0r	0r	1a
.	.	.	.	.	4GG/	.	.	.	.	.	.	.	.	.	4B\	.	.	.	.	.	.	.	.
.	.	.	2F\	2F\	2FF/	.	2C/	.	.	2A/	.	.	2f\	.	4c\	2A/	.	2cc\	2cc\	.	.	.	.
.	.	.	.	.	.	.	.	.	.	.	.	.	.	.	4d\	.	.	.	.	.	.	.	.
.	1G	.	2E\	2C/	1r	.	2C/	1r	.	2G/	1r	1r	2f\	2c\	2G/	2c\	1r	4cc\	1cc	.	.	.	1e
.	.	.	.	.	.	.	.	.	.	.	.	.	.	.	.	.	.	4dd\	.	.	.	.	.
.	.	.	2C/	2G\	.	.	2C/	.	.	2E/	.	.	2e\	2G/	4A/	2c\	.	2ee\	.	.	.	.	.
.	.	.	.	.	.	.	.	.	.	.	.	.	.	.	4B\	.	.	.	.	.	.	.	.
=134	=134	=134	=134	=134	=134	=134	=134	=134	=134	=134	=134	=134	=134	=134	=134	=134	=134	=134	=134	=134	=134	=134	=134
1FF	2A\	1r	0r	4F\	0r	1C	2C/	0r	0r	2.A/	0r	0r	2.f\	2.c\	4c\	2.c\	0r	1a	1.cc	0r	0r	2r	2r
.	.	.	.	4E\	.	.	.	.	.	.	.	.	.	.	4d\	.	.	.	.	.	.	.	.
.	2F\	.	.	4D\	.	.	2.c\	.	.	.	.	.	.	.	2.c\	.	.	.	.	.	.	2a/	2f/
.	.	.	.	4C/	.	.	.	.	.	4B\	.	.	4d\	8B/L	.	4A/	.	.	.	.	.	.	.
.	.	.	.	.	.	.	.	.	.	.	.	.	.	8A/J	.	.	.	.	.	.	.	.	.
1r	1r	2r	.	2.C/	.	1E	.	.	.	[1c	.	.	4e\	4c\	.	1e	.	2r	.	.	.	2g/	2.g/
.	.	.	.	.	.	.	4B\	.	.	.	.	.	4f\	4d\	4A/	.	.	.	.	.	.	.	.
.	.	2C/	.	.	.	.	4A/	.	.	.	.	.	2g\	[2e\	2e\	.	.	[2cc\	2g/	.	.	2e/	.
.	.	.	.	4BB/	.	.	4G/	.	.	.	.	.	.	.	.	.	.	.	.	.	.	.	4e/
=135	=135	=135	=135	=135	=135	=135	=135	=135	=135	=135	=135	=135	=135	=135	=135	=135	=135	=135	=135	=135	=135	=135	=135
1F	0r	2F\	2r	4AA/	2r	2C/	1A	0r	2r	1c]	0r	2r	1r	4e\]	2r	1A	0r	2cc\]	0r	0r	0r	1a	2f/
.	.	.	.	4GG/	.	.	.	.	.	.	.	.	.	4B\	.	.	.	.	.	.	.	.	.
.	.	2F\	2F\	2FF/	2C/	2C/	.	.	2A/	.	.	2f\	.	4c\	2A/	.	.	2cc\	.	.	.	.	2c/
.	.	.	.	.	.	.	.	.	.	.	.	.	.	4d\	.	.	.	.	.	.	.	.	.
1G	.	2E\	2C/	1r	2C/	2C/	1r	.	2G/	1r	.	2f\	2c\	2G/	2c\	1r	.	1cc	.	.	.	1e	2g/
.	.	2C/	2G\	.	2C/	2C/	.	.	2E/	.	.	2e\	2G/	4A/	2c\	.	.	.	.	.	.	.	2c/
.	.	.	.	.	.	.	.	.	.	.	.	.	.	4B\	.	.	.	.	.	.	.	.	.
=136	=136	=136	=136	=136	=136	=136	=136	=136	=136	=136	=136	=136	=136	=136	=136	=136	=136	=136	=136	=136	=136	=136	=136
2A\	1r	0r	4F\	0r	2FF/	2C/	0r	0r	2.A/	0r	1r	2.f\	2.c\	4c\	2.c\	0r	1r	1.cc	0r	0r	2r	2r	0r
.	.	.	4E\	.	.	.	.	.	.	.	.	.	.	4d\	.	.	.	.	.	.	.	.	.
2F\	.	.	4D\	.	2FF/	2.c\	.	.	.	.	.	.	.	2.c\	.	.	.	.	.	.	2a/	2f/	.
.	.	.	4C/	.	.	.	.	.	4B\	.	.	4d\	8B/L	.	4A/	.	.	.	.	.	.	.	.
.	.	.	.	.	.	.	.	.	.	.	.	.	8A/J	.	.	.	.	.	.	.	.	.	.
1r	2r	.	2.C/	.	1C	.	.	.	[1c	.	1c	4e\	4c\	.	1e	.	2r	.	.	.	2g/	2.g/	.
.	.	.	.	.	.	4B\	.	.	.	.	.	4f\	4d\	4A/	.	.	.	.	.	.	.	.	.
.	2C/	.	.	.	.	4A/	.	.	.	.	.	2g\	[2e\	2e\	.	.	2c\	2g/	.	.	2e/	.	.
.	.	.	4BB/	.	.	4G/	.	.	.	.	.	.	.	.	.	.	.	.	.	.	.	4e/	.
=137	=137	=137	=137	=137	=137	=137	=137	=137	=137	=137	=137	=137	=137	=137	=137	=137	=137	=137	=137	=137	=137	=137	=137
0r	2F\	2r	4AA/	2r	1FF	1A	0r	2r	1c]	0r	2c\	1r	4e\]	2r	1A	0r	2.c\	0r	0r	0r	1a	2f/	1r
.	.	.	4GG/	.	.	.	.	.	.	.	.	.	4B\	.	.	.	.	.	.	.	.	.	.
.	2F\	2F\	2FF/	2C/	.	.	.	2A/	.	.	2c\	.	4c\	2A/	.	.	.	.	.	.	.	2c/	.
.	.	.	.	.	.	.	.	.	.	.	.	.	4d\	.	.	.	4A/	.	.	.	.	.	.
.	2E\	2C/	1r	2C/	2r	1r	.	2G/	1r	.	2c\	2c\	2G/	2c\	1r	.	1e	.	.	.	1e	2g/	1cc
.	2C/	2G\	.	2C/	2C/	.	.	2E/	.	.	2c\	2G/	4A/	2c\	.	.	.	.	.	.	.	2c/	.
.	.	.	.	.	.	.	.	.	.	.	.	.	4B\	.	.	.	.	.	.	.	.	.	.
=138	=138	=138	=138	=138	=138	=138	=138	=138	=138	=138	=138	=138	=138	=138	=138	=138	=138	=138	=138	=138	=138	=138	=138
1r	0r	4F\	0r	2FF/	2F\	0r	0r	2.A/	0r	1r	1c	2.c\	4c\	2.c\	0r	1r	1.c	0r	0r	2r	2r	0r	2cc\
.	.	4E\	.	.	.	.	.	.	.	.	.	.	4d\	.	.	.	.	.	.	.	.	.	.
.	.	4D\	.	2FF/	2F\	.	.	.	.	.	.	.	2.c\	.	.	.	.	.	.	2a/	2f/	.	1a
.	.	4C/	.	.	.	.	.	4B\	.	.	.	8B/L	.	4A/	.	.	.	.	.	.	.	.	.
.	.	.	.	.	.	.	.	.	.	.	.	8A/J	.	.	.	.	.	.	.	.	.	.	.
2r	.	2.C/	.	1C	2E\	.	.	[1c	.	1c	1G	4c\	.	1e	.	2r	.	.	.	2g/	2.g/	.	.
.	.	.	.	.	.	.	.	.	.	.	.	4d\	4A/	.	.	.	.	.	.	.	.	.	.
2C/	.	.	.	.	2E\	.	.	.	.	.	.	[2e\	2e\	.	.	2c\	[2g\	.	.	2e/	.	.	[2g/
.	.	4BB/	.	.	.	.	.	.	.	.	.	.	.	.	.	.	.	.	.	.	4e/	.	.
=139	=139	=139	=139	=139	=139	=139	=139	=139	=139	=139	=139	=139	=139	=139	=139	=139	=139	=139	=139	=139	=139	=139	=139
2F\	2r	4AA/	2r	1FF	1C	0r	2r	1c]	0r	2c\	2r	4e\]	2r	1A	0r	2.c\	4g\]	0r	0r	1a	2f/	1r	4g/]
.	.	4GG/	.	.	.	.	.	.	.	.	.	4B\	.	.	.	.	4e\	.	.	.	.	.	4f/
2F\	2F\	2FF/	2C/	.	.	.	2A/	.	.	2c\	1c	4c\	2A/	.	.	.	4f\	.	.	.	2c/	.	1a
.	.	.	.	.	.	.	.	.	.	.	.	4d\	.	.	.	4A/	4d\	.	.	.	.	.	.
2E\	2C/	1r	2C/	2r	1C	.	2G/	1r	.	2c\	.	2G/	2c\	1r	.	1e	1e	.	.	1e	2g/	1cc	.
2C/	2G\	.	2C/	2C/	.	.	2E/	.	.	2c\	2c\	4A/	2c\	.	.	.	.	.	.	.	2c/	.	[2g/
.	.	.	.	.	.	.	.	.	.	.	.	4B\	.	.	.	.	.	.	.	.	.	.	.
=140	=140	=140	=140	=140	=140	=140	=140	=140	=140	=140	=140	=140	=140	=140	=140	=140	=140	=140	=140	=140	=140	=140	=140
0r	4F\	0r	2FF/	2F\	0r	0r	2.A/	0r	1r	1c	2.A/	4c\	2.c\	0r	1r	1.c	2r	0r	2r	2r	0r	2cc\	2g/]
.	4E\	.	.	.	.	.	.	.	.	.	.	4d\	.	.	.	.	.	.	.	.	.	.	.
.	4D\	.	2FF/	2F\	.	.	.	.	.	.	.	2.c\	.	.	.	.	1c	.	2a/	2f/	.	1a	2.f/
.	4C/	.	.	.	.	.	4B\	.	.	.	4F/	.	4A/	.	.	.	.	.	.	.	.	.	.
.	2.C/	.	1C	2E\	.	.	[1c	.	1c	1G	1G	.	1e	.	2r	.	.	.	2g/	2.g/	.	.	.
.	.	.	.	.	.	.	.	.	.	.	.	4A/	.	.	.	.	.	.	.	.	.	.	4e/
.	.	.	.	2E\	.	.	.	.	.	.	.	2e\	.	.	2c\	[2g\	4B\	.	2e/	.	.	[2g/	4e/
.	4BB/	.	.	.	.	.	.	.	.	.	.	.	.	.	.	.	4A/	.	.	4e/	.	.	4d/
=141	=141	=141	=141	=141	=141	=141	=141	=141	=141	=141	=141	=141	=141	=141	=141	=141	=141	=141	=141	=141	=141	=141	=141
2r	4AA/	2r	1FF	1C	1FF	2r	1c]	0r	2c\	2r	1F	2r	1A	0r	2.c\	4g\]	1A	0r	1a	2f/	1r	4g/]	1f
.	4GG/	.	.	.	.	.	.	.	.	.	.	.	.	.	.	4e\	.	.	.	.	.	4f/	.
2F\	2FF/	2C/	.	.	.	2A/	.	.	2c\	1c	.	2A/	.	.	.	4f\	.	.	.	2c/	.	1a	.
.	.	.	.	.	.	.	.	.	.	.	.	.	.	.	4A/	4d\	.	.	.	.	.	.	.
2C/	1r	2C/	2r	1C	1r	2G/	1r	.	2c\	.	1r	2c\	1r	.	1e	1e	2r	.	1e	2g/	1cc	.	1r
2G\	.	2C/	2C/	.	.	2E/	.	.	2c\	2c\	.	2c\	.	.	.	.	2e\	.	.	2c/	.	[2g/	.
=142	=142	=142	=142	=142	=142	=142	=142	=142	=142	=142	=142	=142	=142	=142	=142	=142	=142	=142	=142	=142	=142	=142	=142
4F\	0r	2FF/	2F\	0r	1FF	2.A/	0r	1r	1c	2.A/	2.C/	2.c\	0r	1r	1.c	2r	2.f\	2r	2r	0r	2cc\	2g/]	0r
4E\	.	.	.	.	.	.	.	.	.	.	.	.	.	.	.	.	.	.	.	.	.	.	.
4D\	.	2FF/	2F\	.	.	.	.	.	.	.	.	.	.	.	.	1c	.	2a/	2f/	.	1a	2.f/	.
4C/	.	.	.	.	.	4B\	.	.	.	4F/	4D/	4A/	.	.	.	.	4e\	.	.	.	.	.	.
2.C/	.	1C	2E\	.	1r	[1c	.	1c	1G	1G	4E/	1e	.	2r	.	.	4c\	2g/	2.g/	.	.	.	.
.	.	.	.	.	.	.	.	.	.	.	4F/	.	.	.	.	.	4d\	.	.	.	.	4e/	.
.	.	.	2E\	.	.	.	.	.	.	.	2G/	.	.	2c\	[2g\	4B\	2e\	2e/	.	.	[2g/	4e/	.
4BB/	.	.	.	.	.	.	.	.	.	.	.	.	.	.	.	4A/	.	.	4e/	.	.	4d/	.
=143	=143	=143	=143	=143	=143	=143	=143	=143	=143	=143	=143	=143	=143	=143	=143	=143	=143	=143	=143	=143	=143	=143	=143
4AA/	2r	1FF	1C	1FF	1C	1c]	0r	2c\	2r	1F	2r	1A	0r	2.c\	4g\]	1A	2r	1a	2f/	1r	4g/]	1f	1a
4GG/	.	.	.	.	.	.	.	.	.	.	.	.	.	.	4e\	.	.	.	.	.	4f/	.	.
2FF/	2C/	.	.	.	.	.	.	2c\	1c	.	2C/	.	.	.	4f\	.	4A/	.	2c/	.	1a	.	.
.	.	.	.	.	.	.	.	.	.	.	.	.	.	4A/	4d\	.	4B\	.	.	.	.	.	.
1r	2C/	2r	1C	1r	2G\	1r	.	2c\	.	1r	2C/	1r	.	1e	1e	2r	4c\	1e	2g/	1cc	.	1r	2g/
.	.	.	.	.	.	.	.	.	.	.	.	.	.	.	.	.	4d\	.	.	.	.	.	.
.	2C/	2C/	.	.	2G\	.	.	2c\	2c\	.	2C/	.	.	.	.	2e\	[2e\	.	2c/	.	[2g/	.	2e/
=144	=144	=144	=144	=144	=144	=144	=144	=144	=144	=144	=144	=144	=144	=144	=144	=144	=144	=144	=144	=144	=144	=144	=144
0r	2FF/	2F\	0r	1FF	2F\	0r	1r	1c	2.A/	2.C/	[0C	0r	1r	1.c	2r	2.f\	4e\]	2r	0r	2cc\	2g/]	0r	1a
.	.	.	.	.	.	.	.	.	.	.	.	.	.	.	.	.	4A/	.	.	.	.	.	.
.	2FF/	2F\	.	.	2.A\	.	.	.	.	.	.	.	.	.	1c	.	2.f\	2f/	.	1a	2.f/	.	.
.	.	.	.	.	.	.	.	.	4F/	4D/	.	.	.	.	.	4e\	.	.	.	.	.	.	.
.	1C	2E\	.	1r	.	.	1c	1G	1G	4E/	.	.	2r	.	.	4c\	.	2.g/	.	.	.	.	1e
.	.	.	.	.	4G\	.	.	.	.	4F/	.	.	.	.	.	4d\	4e\	.	.	.	4e/	.	.
.	.	2E\	.	.	[2c\	.	.	.	.	2G/	.	.	2c\	[2g\	4B\	2e\	2g\	.	.	[2g/	4e/	.	.
.	.	.	.	.	.	.	.	.	.	.	.	.	.	.	4A/	.	.	4e/	.	.	4d/	.	.
=145	=145	=145	=145	=145	=145	=145	=145	=145	=145	=145	=145	=145	=145	=145	=145	=145	=145	=145	=145	=145	=145	=145	=145
2r	1FF	1C	1FF	1C	2c\]	0r	2c\	2r	1F	2r	1C]	0r	2.c\	4g\]	1A	2r	1a	2f/	1r	4g/]	1f	1a	2a/
.	.	.	.	.	.	.	.	.	.	.	.	.	.	4e\	.	.	.	.	.	4f/	.	.	.
2C/	.	.	.	.	4B\	.	2c\	1c	.	2C/	.	.	.	4f\	.	4A/	.	2c/	.	1a	.	.	2.cc\
.	.	.	.	.	4A\	.	.	.	.	.	.	.	4A/	4d\	.	4B\	.	.	.	.	.	.	.
2C/	2r	1C	1r	2G\	1G	.	2c\	.	1r	2C/	2r	.	1e	1e	2r	4c\	2e\	2g/	1cc	.	1r	2g/	.
.	.	.	.	.	.	.	.	.	.	.	.	.	.	.	.	4d\	.	.	.	.	.	.	8b/L
.	.	.	.	.	.	.	.	.	.	.	.	.	.	.	.	.	.	.	.	.	.	.	8a/J
2C/	2C/	.	.	2G\	.	.	2c\	2c\	.	2C/	[2c\	.	.	.	2e\	[2e\	[2c\	2c/	.	[2g/	.	2e/	2ee\
=146	=146	=146	=146	=146	=146	=146	=146	=146	=146	=146	=146	=146	=146	=146	=146	=146	=146	=146	=146	=146	=146	=146	=146
2FF/	2F\	0r	1FF	2F\	2r	1r	1c	2.A/	2.C/	[0C	4c\]	1r	1.c	2r	2.f\	4e\]	4c\]	0r	2cc\	2g/]	0r	1a	0r
.	.	.	.	.	.	.	.	.	.	.	4A/	.	.	.	.	4A/	4B\	.	.	.	.	.	.
2FF/	2F\	.	.	2.A\	2C/	.	.	.	.	.	2A/	.	.	1c	.	2.f\	4c\	.	1a	2.f/	.	.	.
.	.	.	.	.	.	.	.	4F/	4D/	.	.	.	.	.	4e\	.	4A/	.	.	.	.	.	.
1C	2E\	.	1r	.	2C/	1c	1G	1G	4E/	.	1c	2r	.	.	4c\	.	2e\	.	.	.	.	1e	.
.	.	.	.	4G\	.	.	.	.	4F/	.	.	.	.	.	4d\	4e\	.	.	.	4e/	.	.	.
.	2E\	.	.	[2c\	2C/	.	.	.	2G/	.	.	2c\	[2g\	4B\	2e\	2g\	2c\	.	[2g/	4e/	.	.	.
.	.	.	.	.	.	.	.	.	.	.	.	.	.	4A/	.	.	.	.	.	4d/	.	.	.
=147	=147	=147	=147	=147	=147	=147	=147	=147	=147	=147	=147	=147	=147	=147	=147	=147	=147	=147	=147	=147	=147	=147	=147
1FF	1C	1FF	1C	2c\]	2AA/	2c\	2r	1F	2r	1C]	[0C	2.c\	4g\]	1A	2r	1a	1c	1r	4g/]	1f	1a	2a/	0cc
.	.	.	.	.	.	.	.	.	.	.	.	.	4e\	.	.	.	.	.	4f/	.	.	.	.
.	.	.	.	4B\	4FF/	2c\	1c	.	2C/	.	.	.	4f\	.	4A/	.	.	.	1a	.	.	2.cc\	.
.	.	.	.	4A\	4C/	.	.	.	.	.	.	4A/	4d\	.	4B\	.	.	.	.	.	.	.	.
2r	1C	1r	2G\	1G	1C	2c\	.	1r	2C/	2r	.	1e	1e	2r	4c\	2e\	1r	1cc	.	1r	2g/	.	.
.	.	.	.	.	.	.	.	.	.	.	.	.	.	.	4d\	.	.	.	.	.	.	8b/L	.
.	.	.	.	.	.	.	.	.	.	.	.	.	.	.	.	.	.	.	.	.	.	8a/J	.
2C/	.	.	2G\	.	.	2c\	2c\	.	2C/	[2c\	.	.	.	2e\	[2e\	[2c\	.	.	[2g/	.	2e/	2ee\	.
=148	=148	=148	=148	=148	=148	=148	=148	=148	=148	=148	=148	=148	=148	=148	=148	=148	=148	=148	=148	=148	=148	=148	=148
2F\	0r	1FF	2F\	2r	1FF	1c	2.A/	2.C/	[0C	4c\]	0C]	1.c	2r	2.f\	4e\]	4c\]	0r	2cc\	2g/]	0r	1a	0r	1.cc
.	.	.	.	.	.	.	.	.	.	4A/	.	.	.	.	4A/	4B\	.	.	.	.	.	.	.
2F\	.	.	2.A\	2C/	.	.	.	.	.	2A/	.	.	1c	.	2.f\	4c\	.	1a	2.f/	.	.	.	.
.	.	.	.	.	.	.	4F/	4D/	.	.	.	.	.	4e\	.	4A/	.	.	.	.	.	.	.
2E\	.	1r	.	2C/	2r	1G	1G	4E/	.	1c	.	.	.	4c\	.	2e\	.	.	.	.	1e	.	.
.	.	.	4G\	.	.	.	.	4F/	.	.	.	.	.	4d\	4e\	.	.	.	4e/	.	.	.	.
2E\	.	.	[2c\	2C/	2C/	.	.	2G/	.	.	.	[2g\	4B\	2e\	2g\	2c\	.	[2g/	4e/	.	.	.	2g/
.	.	.	.	.	.	.	.	.	.	.	.	.	4A/	.	.	.	.	.	4d/	.	.	.	.
=149	=149	=149	=149	=149	=149	=149	=149	=149	=149	=149	=149	=149	=149	=149	=149	=149	=149	=149	=149	=149	=149	=149	=149
1C	1FF	1C	2c\]	2AA/	2C/	2r	1F	2r	1C]	[0C	1C	4g\]	1A	2r	1a	[0cl	0r	4g/]	1f	1a	2a/	0cc	2r
.	.	.	.	.	.	.	.	.	.	.	.	4e\	.	.	.	.	.	4f/	.	.	.	.	.
.	.	.	4B\	4FF/	2C/	1c	.	2C/	.	.	.	4f\	.	4A/	.	.	.	1a	.	.	2.cc\	.	2cc\
.	.	.	4A\	4C/	.	.	.	.	.	.	.	4d\	.	4B\	.	.	.	.	.	.	.	.	.
1C	1r	2G\	1G	1C	2C/	.	1r	2C/	2r	.	[1C	1e	2r	4c\	2e\	.	.	.	1r	2g/	.	.	[1cc
.	.	.	.	.	.	.	.	.	.	.	.	.	.	4d\	.	.	.	.	.	.	8b/L	.	.
.	.	.	.	.	.	.	.	.	.	.	.	.	.	.	.	.	.	.	.	.	8a/J	.	.
.	.	2G\	.	.	2C/	2c\	.	2C/	[2c\	.	.	.	2e\	[2e\	[2c\	.	.	[2g/	.	2e/	2ee\	.	.
=150	=150	=150	=150	=150	=150	=150	=150	=150	=150	=150	=150	=150	=150	=150	=150	=150	=150	=150	=150	=150	=150	=150	=150
0r	1FF	2F\	2r	1FF	0C	2.A/	2.C/	[0Cl	4c\]	0C]	2C/]	2r	2.f\	4e\]	4c\]	0c_	0r	2g/]	0r	1a	0r	1.cc	2cc\]
.	.	.	.	.	.	.	.	.	4A/	.	.	.	.	4A/	4B\	.	.	.	.	.	.	.	.
.	.	2.A\	2C/	.	.	.	.	.	2A/	.	2D/	1c	.	2.f\	4c\	.	.	2.f/	.	.	.	.	1a
.	.	.	.	.	.	4F/	4D/	.	.	.	.	.	4e\	.	4A/	.	.	.	.	.	.	.	.
.	1r	.	2C/	2r	.	1G	4E/	.	1c	.	1E	.	4c\	.	2e\	.	.	.	.	1e	.	.	.
.	.	4G\	.	.	.	.	4F/	.	.	.	.	.	4d\	4e\	.	.	.	4e/	.	.	.	.	.
.	.	2c\	2C/	2C/	.	.	2G/	.	.	.	.	4B\	2e\	2g\	2c\	.	.	4e/	.	.	.	2g/	4g/
.	.	.	.	.	.	.	.	.	.	.	.	4A/	.	.	.	.	.	4d/	.	.	.	.	4f/
=151	=151	=151	=151	=151	=151	=151	=151	=151	=151	=151	=151	=151	=151	=151	=151	=151	=151	=151	=151	=151	=151	=151	=151
0r	0r	[0cl	[0AAl	0C	[0FFl	[0Fl	2r	0C_	[0Cl	1C	[0Cl	[0Al	0r	[0al	[0cl	0c_	[0cl	1f	0r	2a/	0cc	2r	0cc
.	.	.	.	.	.	.	2C/	.	.	.	.	.	.	.	.	.	.	.	.	2.cc\	.	2cc\	.
.	.	.	.	.	.	.	2C/	.	.	1C	.	.	.	.	.	.	.	1r	.	.	.	[1cc	.
.	.	.	.	.	.	.	.	.	.	.	.	.	.	.	.	.	.	.	.	8b/L	.	.	.
.	.	.	.	.	.	.	.	.	.	.	.	.	.	.	.	.	.	.	.	8a/J	.	.	.
.	.	.	.	.	.	.	2C/	.	.	.	.	.	.	.	.	.	.	.	.	2a/	.	.	.
=152	=152	=152	=152	=152	=152	=152	=152	=152	=152	=152	=152	=152	=152	=152	=152	=152	=152	=152	=152	=152	=152	=152	=152
1FF	0r	0c_	0AA_	[0Cl	0FF_	0F_	[0Cl	0C_	0C_	[0Cl	0C_	0A_	0r	0a_	0c_	0c_	0c_	0r	0r	0r	1.cc	2cc\]	1.cc
.	.	.	.	.	.	.	.	.	.	.	.	.	.	.	.	.	.	.	.	.	.	1a	.
1FF	.	.	.	.	.	.	.	.	.	.	.	.	.	.	.	.	.	.	.	.	.	.	.
.	.	.	.	.	.	.	.	.	.	.	.	.	.	.	.	.	.	.	.	.	2cc\	4g/	4b\
.	.	.	.	.	.	.	.	.	.	.	.	.	.	.	.	.	.	.	.	.	.	4f/	4a/
=153	=153	=153	=153	=153	=153	=153	=153	=153	=153	=153	=153	=153	=153	=153	=153	=153	=153	=153	=153	=153	=153	=153	=153
[0FFl	1C	0c_	0AA_	0C_	0FF_	0F_	0C_	0C_	0C_	0C_	0C_	0A_	2r	0a_	0c_	0c_	0c_	1a	[0al	1cc	2r	[0ccl	[0al
.	.	.	.	.	.	.	.	.	.	.	.	.	2A/	.	.	.	.	.	.	.	2cc\	.	.
.	1C	.	.	.	.	.	.	.	.	.	.	.	1A	.	.	.	.	1a	.	1cc	1cc	.	.
=154	=154	=154	=154	=154	=154	=154	=154	=154	=154	=154	=154	=154	=154	=154	=154	=154	=154	=154	=154	=154	=154	=154	=154
0FF]	0Cl	0c]	0AA]	0C]	0FF]	0F]	0C]	0C]	0C]	0C]	0C]	0A]	0Al	0a]	0c]	0c]	0c]	0al	0a]	0ccl	0ccl	0cc]	0a]
==	==	==	==	==	==	==	==	==	==	==	==	==	==	==	==	==	==	==	==	==	==	==	==
*-	*-	*-	*-	*-	*-	*-	*-	*-	*-	*-	*-	*-	*-	*-	*-	*-	*-	*-	*-	*-	*-	*-	*-
!!!RDF**kern: l=long note in original notation
!!!RDF**kern: i=editorial accidental
!!!RDF**kern: V=start of tuplet marker
!!!RDF**kern: Z=end of tuplet marker
!!!ENC:	Joel Chapman 2012/05/02
!!!END:	2012/05/02/
!!!EED:	Jesse Rodin
!!!EEV:	2012/06/24/
!!attribution-level@Jos: 4 (questionable)
!!!ONB:	Translated from MusicXML and edited on 2012/06/24/ by Craig Sapp
!!muse2ps: C^@{COA}?\n@{SCT}^i2I150Q16z14
!!muse2ps: s^[(.)(.)(.)(.)(.)(.)(.)(.)(.)(.)(.)(.)(.)(.)(.)(.)(.)(.)(.)(.)(.)(.)(.)(.)]^
!!muse2ps: v80,80,80,80,80,100,80,80,80,80,80,100,80,80,80,80,80,100,80,80,80,80,80,100
